/* XPM */
static char *_22b2643861a4d83d8973bb965d01e62Ukk64Zddms8rnD3Z[] = {
/* columns rows colors chars-per-pixel */
"64 64 244 2 ",
"   c #7F5300",
".  c #5E746E",
"X  c #4D667E",
"o  c #4A6577",
"O  c #566C76",
"+  c #536A7A",
"@  c #576D76",
"#  c #5C7272",
"$  c #6B7E63",
"%  c #667969",
"&  c #63776B",
"*  c #637872",
"=  c #825802",
"-  c #8B6306",
";  c #9B7209",
":  c #9B7419",
">  c #936C10",
",  c #A67A09",
"<  c #A87817",
"1  c #9B7424",
"2  c #A17B27",
"3  c #7E8C4D",
"4  c #6F805F",
"5  c #7B8A53",
"6  c #73845C",
"7  c #768656",
"8  c #728461",
"9  c #AC840A",
"0  c #B78908",
"q  c #BD9203",
"w  c #A98419",
"e  c #B68912",
"r  c #978934",
"t  c #8A953B",
"y  c #969B3B",
"u  c #9D8527",
"i  c #A68625",
"p  c #B69628",
"a  c #A58B32",
"s  c #AA9434",
"d  c #98A13E",
"f  c #B5A538",
"g  c #C69A06",
"h  c #C9960D",
"j  c #CCA200",
"k  c #CAA00A",
"l  c #DCAB01",
"z  c #D8A605",
"x  c #DDB202",
"c  c #DFB40A",
"v  c #CBA41A",
"b  c #D7AB14",
"n  c #DCB214",
"m  c #D9B31E",
"M  c #C5B21D",
"N  c #E1AD02",
"B  c #E4B401",
"V  c #EAB600",
"C  c #E6BA01",
"Z  c #EBBC01",
"A  c #E5B90D",
"S  c #F1BE02",
"D  c #E4BC1A",
"F  c #E6BB16",
"G  c #C9A727",
"H  c #D9B928",
"J  c #C8B638",
"K  c #CDB130",
"L  c #E6BE24",
"P  c #C29C24",
"I  c #E6C201",
"U  c #EDC201",
"Y  c #EBC20A",
"T  c #F2C401",
"R  c #F5C902",
"E  c #FBCC02",
"W  c #F2C60B",
"Q  c #F4CA0C",
"!  c #FACE0D",
"~  c #FED203",
"^  c #FED30B",
"/  c #EAC114",
"(  c #EAC319",
")  c #F5CA15",
"_  c #FBCE1B",
"`  c #F5CA16",
"'  c #FDD21C",
"]  c #FBD517",
"[  c #ECD21C",
"{  c #D6C336",
"}  c #EAC927",
"|  c #F3CC21",
" . c #EDD328",
".. c #FDD324",
"X. c #FCD62B",
"o. c #FEDA2C",
"O. c #F9D725",
"+. c #EDD238",
"@. c #FDDB33",
"#. c #FDDD3B",
"$. c #F5D537",
"%. c #EDCF34",
"&. c #FEE13C",
"*. c #FCE134",
"=. c #F9E12D",
"-. c #818F4C",
";. c #859345",
":. c #889747",
">. c #949E42",
",. c #869350",
"<. c #97A242",
"1. c #A6A944",
"2. c #BAB74A",
"3. c #B0B14F",
"4. c #A19E5A",
"5. c #C5B745",
"6. c #D2BB4A",
"7. c #BBC672",
"8. c #BAC351",
"9. c #C7C956",
"0. c #CDD35A",
"q. c #D8D758",
"w. c #D3C74B",
"e. c #E4CA46",
"r. c #E8D345",
"t. c #FADC45",
"y. c #E8D958",
"u. c #F2DA57",
"i. c #E5CC57",
"p. c #FEE243",
"a. c #FDE34C",
"s. c #FBEA49",
"d. c #FDE454",
"f. c #FEEC54",
"g. c #FDE65A",
"h. c #FEEA5C",
"j. c #F5E459",
"k. c #FDF15A",
"l. c #EDE05F",
"z. c #C4C768",
"x. c #CCD568",
"c. c #D7DC66",
"v. c #CAD178",
"b. c #D6D877",
"n. c #D0CC6F",
"m. c #E9DB6C",
"M. c #E4E468",
"N. c #FDEC63",
"B. c #FDED6B",
"V. c #F7E865",
"C. c #FEF165",
"Z. c #FDF36B",
"A. c #FDF86D",
"S. c #E8E477",
"D. c #F5E775",
"F. c #FEFB73",
"G. c #FEFE7C",
"H. c #FBF576",
"J. c #183B9F",
"K. c #1D3D8C",
"L. c #1B3DA3",
"P. c #1A3CA5",
"I. c #3D598E",
"U. c #395587",
"Y. c #2C4B9E",
"T. c #254499",
"R. c #304F9A",
"E. c #324D94",
"W. c #355296",
"Q. c #3A5691",
"!. c #325099",
"~. c #3C5995",
"^. c #304D8D",
"/. c #1E40A6",
"(. c #1F41A8",
"). c #2445A6",
"_. c #2748A3",
"`. c #2949A1",
"'. c #2344A8",
"]. c #2A4AA6",
"[. c #3858AB",
"{. c #3353AC",
"}. c #2F51A5",
"|. c #445F86",
" X c #425D8A",
".X c #435A96",
"XX c #4A6382",
"oX c #466185",
"OX c #435EAA",
"+X c #4F6DB4",
"@X c #6479A2",
"#X c #6E8397",
"$X c #738CAE",
"%X c #6683C3",
"&X c #7893C8",
"*X c #AEBA8B",
"=X c #98AAB2",
"-X c #A2ADA5",
";X c #B5C6A1",
":X c #C9D38B",
">X c #CFD895",
",X c #E8E486",
"<X c #FDFD83",
"1X c #FDFD8B",
"2X c #FCF586",
"3X c #E8E898",
"4X c #FDFB96",
"5X c #F4EB94",
"6X c #C7D6A9",
"7X c #C6D4B9",
"8X c #D1DAA5",
"9X c #DEE3AD",
"0X c #F0F0B0",
"qX c #849CC9",
"wX c #819FD0",
"eX c #99B4DC",
"rX c #94AAD3",
"tX c #A5B7D7",
"yX c #A3BDE2",
"uX c #9DB7E0",
"iX c #B5C5D4",
"pX c #B3CCE7",
"aX c #BCD3ED",
"sX c #B6CEED",
"dX c #C5D7D6",
"fX c #C8D7CC",
"gX c #F0F1D0",
"hX c #C5D8E7",
"jX c #C2D7F2",
"kX c #C4DAF3",
"lX c #CADDF4",
"zX c #C9DDF8",
"xX c #D3DEEC",
"cX c #CCE2F7",
"vX c #D8E6F6",
"bX c #D4E4EA",
"nX c #F7F8EB",
"mX c #E5EDF7",
"MX c #ECF2F7",
"NX c #F2F6FA",
"BX c #FDFEFD",
"VX c #F6F9F8",
"CX c #E8EDEC",
"ZX c #DAE3D8",
/* pixels */
"vXMXBXBXBXBXBXBXBXBXxX].(.'.'.'.'.'.'.'.'.'.'.'.'.'.'.'.'.'.'.'.'.).'.'.'.'.'.'.'.'.'.'.'.'.'.'.'.'.'.'.'.'.'.'.'.'.L.%XkXjXjXkX",
"cXmXVXBXBXBXNXNXVXVXBX$XP.'.'.'.'.'.'.'.'.'.'.'.'.'.'.'.'.'.'.'.'.).'.'.'.'.'.'.'.'.'.'.'.'.'.'.'.'.'.'.'.'.'.'.'.P.+XaXkXjXkXjX",
"kXvXMXBXBXBXNXvXmXmXNXqXP.'.'.'.'.'.'.'.'.'.'.'.'.'.'.'.'.'.'.'.'.).'.'.'.'.'.'.'.'.'.'.'.'.'.'.'.'.'.'.'.'.'.'.'.L.eXcXjXjXjXjX",
"jXlXvXMXNXBXMXlXlXlXvX+XP.'.'.'.'.'.'.'.'.'.'.'.'.).).).)._._._._._._.).).).).'.'.'.'.'.'.'.'.'.'.'.'.'.'.'.'.'.'./.uXzXjXjXjXjX",
"jXjXlXvXvXmXvXjXjXcXeX).'.'.'.'.'.'.'.'.'.'.).).`.`.Y.R.!.!.!.W.W.!.!.!.R.Y.Y.`.).).).'.'.'.'.'.'.'.'.'.'.'.'.'.'.P.+XcXkXkXlXjX",
"jXjXjXkXlXcXjXaXaXwX]./.'.'.'.'.'.'.'.).)._.Y.Y.W.Q.I.|.oXXXXXXXXXXXXXXXoX XI.W.!.Y.`.).).'.'.'.'.'.'.'.'.'.'.'.'.'.).%XpXyX&XaX",
"kXkXkXkXcXyX[.[.[.L.P.'.'.'.'.'.'.'.).`.Y.!.Q. XX + # & % $ $ $ $ $ $ % & . @ X U.U.^.T.T.).).).'.'.'.'.'.'.'.'.'.'.).P.'.).P.&X",
"%XpXaXsXwX{.P././.'.'.'.'.'.'.'.)._.Y.W.I.XX+ . $ 6 5 3 ;.;.;.;.;.;.;.;.;.-.7 6 4.*X*X-X#XE.T.).'.'.'.'.'.'.'.'.'.'.).'.).'.'.).",
"P.].[.{.L./.'.'.'.'.'.'.'.'.'.).`.!.I.XX@ % 6 3 ;.t <.3.z.9.w.{ { H J 9.0.9.2.0.S.2X5X0X0X7X@XT.).L.(.'.'.'.'.'.'.'.'.'.'.'.'.'.",
"'.'.P.(.'.'.'.'.'.'.'.'.'.)._.Y.W.|.+ % 6 -.t <.3.n.M.Z.C.h.g.d.a.a.t.#.#.t.r.r.q.c.M.S.3X0X0X#X.XOXT.L.'.'.'.'.'.'.'.'.'.'.'.'.",
"'.'.'.'.'.'.'.'.'.'.'.'.).`.R.I.XX. 8 -.t <.z.,XH.C.k.f.h.N.N.N.V.V.N.N.g.a.t.$.%.{ q.c.M.,X3X9XZXgXiXOXJ.L.L.'.'.'.'.'.'.'.'.'.",
"'.'.'.'.'.'.'.'.'.'.'.).`.!. X+ % 5 ;.d 7.5XH.k.s.f.N.B.B.B.B.N.N.N.V.V.h.g.g.f.p.X.} e.q.M.S.3X0XgXnXdXiXtX+XL.'.).'.'.'.'.'.'.",
"'.'.'.'.'.'.'.'.'.'.).`.!. X@ $ -.t 3.3XH.f.s.f.N.B.B.B.B.B.B.B.N.N.N.g.g.g.d.d.a.s.&.O.} w.q.M.,X9X7XZXnXBXNX@XP.'.'.'.'.'.'.'.",
"'.'.'.'.'.'.'.'.'.).`.!. X@ 4 -.y z.5XN.p.f.h.N.C.Z.A.F.Z.V.j.u.u.u.j.h.h.g.d.a.p.p.&.&.o.L { q.c.b.>X7XgXnXNXtX/.'.'.'.'.'.'.'.",
"'.'.'.'.'.'.'.'.'._.R. X@ 4 -.y v.2Xs.s.f.C.B.Z.F.B.i.J i > - - - - > w P H t.s.p.#.#.#.#.=.( H 0.0.v.8XZXZXbXtX'.'.'.'.'.'.'.'.",
"'.'.'.'.'.'.'.'.).Y.I.+ $ -.y :X2Xs.f.k.Z.Z.A.B.6.> = - : s f 5.6.J f w > - ; G $.p.#.@.o.@.o.` G q.M.,X8XfXhX&XL.'.'.'.'.'.'.'.",
"'.'.'.'.'.'.'.).Y.W.XX% -.y v.2Xs.f.C.N.Z.H.6.: = i 6.S.G.<X<XG.G.G.F.Z.j.e.G ; ; v #.&.@.@...O.Q K q.c.>X6X=X~.T.'.'.'.'.'.'.'.",
"'.'.'.'.'.'.).`.!.oX. 5 t z.2Xs.f.Z.Z.F.V.p = u n.1X1X1X<X<XG.G.F.A.Z.Z.N.h.g.t.K ; 9 } @.o...' ] A J 0.b.*Xo !.Y.).'.'.'.'.'.'.",
"'.'.'.'.'.'.).Y.I.@ 6 t 3.2Xs.s.N.Z.A.l.: = 5.1X4X1X1X1XD.M.y.y.y.y.y.u.h.d.d.a.s.$.e , L o...' ] ^ N 5.0.7.&  XR._.'.'.'.'.'.'.",
"'.'.'.'.'.).`.W.XX% -.<.,Xh.s.k.Z.Z.l.> > b.4X4X1X1X1X1Xp , 9 9 9 9 9 v d.d.a.p.#.@.@.G , D O.' ^ ~ ~ v 9.9.6 + Q.Y.).'.'.'.'.'.",
"'.'.'.'.'.).Y.I.@ 6 t z.B.s.k.C.Z.V.: > m.4X1X1X1X1X1XH.e q q g g g q m a.a.t.#.#.@.o.o.v 0 ` ' ] ^ ~ Z G 8.-.& |.R._.'.'.'.'.'.",
"'.'.'.'.'._.W.XX% -.<.D.g.g.N.N.Z.p = c.1X1X1X1X<X<XG.H.e q q h h h q H p.t.t.@.@.@.X.....v q ] ] ^ E E z 1.:.6 + Q.Y.).'.'.'.'.",
"'.'.'.'.).`.Q.+ 6 t 9.N.d.N.B.Z.6.  5.1X<X<X<X<XG.G.G.H.e q k k v v h H p.#.#.@.@.o....._ | h z ] ^ E E Z p >.5 .  XY.).'.'.'.'.",
"'.'.'.'.).Y. X& 3 <.y.g.g.N.C.V.> w <X<X<X<XG.G.G.G.F.V.e q b F F n b } p.#.@.@.o.....' ` _ } g Q ^ E E E h y :.$ XXW.`.'.'.'.'.",
"'.'.'.'.`.W.XX$ ;.1.s.g.N.N.Z.6.  y.G.G.G.G.G.G.G.F.A.V.e g b F F D b } #.@.@.o....._ _ ` ) ` b x ^ E R E A s >.6 O Q.Y.).'.'.'.",
"'.'.'.).`.Q.+ 6 t 5.a.g.N.h.V.; i G.F.F.F.F.F.F.A.Z.Z.V.e g n F F F b } #.@.o...' _ _ _ ) Q Q A l W E E E S p y 5 .  XY.).'.'.'.",
"'.'.'.).Y. X# 5 y e.d.h.h.k.e.= w.G.F.F.F.F.A.Z.Z.Z.C.j.e g n F F D n } @.X.....' _ ) ) Q W U U x Z E E T T h y :.% oX!._.'.'.'.",
"'.'.'.).R.|.% -.1.$.d.g.g.C.G - V.A.Z.Z.Z.Z.Z.C.N.N.h.u.e g c F F D n } @....._ _ ) ) Q W R U U C Z E R T R h y :.$ X W.`.'.'.'.",
"'.'.'._.!.XX$ ;.2.@.g.g.g.h.w : Z.N.C.C.C.N.N.N.h.g.d.t.0 g A / F D n } @...' _ ) ) Q R T U U U Z C T T T R z a <.6 + Q.`.'.'.'.",
"'.'.'._.W.XX$ ;.J #.g.d.d.d.; p Z.N.N.N.N.h.h.g.d.d.a.t.0 j c / F D D } o._ _ ) ) W W T U U U U Z Z T T T R N a <.7 @ Q.Y.).'.'.",
"'.'.'._.W.X 4 ;.M @.d.a.d.t.; J C.g.h.h.h.g.g.d.d.a.p.$.0 j c / F D D } X._ ` ) Q W T U U U Z U Z U T T T T B i <.5 @ I.Y.).'.'.",
"'.'.'._.W.X 4 :.M @.d.a.a.t.; e.h.d.d.d.d.d.d.t.p.#.&.$.0 j c / ( ( D } O.) ) Q W R U U U Z Z Z C T T T T T C w <.5 # I.Y.).'.'.",
"'.'.'._.W.X 4 :.M X.a.p.p.$.; e.g.a.a.a.a.t.t.#.#.@.@.$.0 j c / ( ( D } ..) Q W R U U Z Z Z C C C R R T U U B < d 5 # I.Y.).'.'.",
"'.'.'._.!.X $ ;.G X.p.#.&.$., { a.t.t.t.#.#.#.#.@.@.@.| 0 j c / ( / F } O.W W U U U Z Z C C C C C Q Q U Z U N < <.5 # I.Y.).'.'.",
"'.'.'._.!.X $ ;.K | &.#.&.#., H p.#.#.#.#.@.@.@.@.o.X.| 0 j B / / / F } _ W T U U Z C C V C C C C [ Q U Z T N 2 <.5 @ I.Y.).'.'.",
"'.'.'._.!.XX$ ;.2.} *.@.#.&.e v &.@.@.@.@.@.o.X.X...' ` 0 j x Y Y / F } ` U U Z Z C V C C C C C x O.W U Z T z r <.6 + Q.`.'.'.'.",
"'.'.'.).R.oX% -.1.L o.@.#.&.v 9 @.@.@.o.X.X......._ _ ) 0 j x U Y / A } ` Z Z Z C C C C C B B B C =.Y Z Z T h r >.6 X W.`.'.'.'.",
"'.'.'.).Y. X. 3 d H ..@.@.#.L 9 } o.X.......' _ _ ) ! W 0 j x Z I Y A } ` C C C C C C B C B B N } =.Z Z Z Z e >.:.% XX!._.'.'.'.",
"'.'.'.'.Y.Q.+ 5 2.{ _ o.o.o.O.0 m ..' ] ] ) ) ) Q Q E Y 0 j x Z I C C } ` C C C C B C B B N B N s.O.Z Z Z C w y -.&  XY.).'.'.'.",
"'.'.'.'.`.E.@X:Xc.w.D ' ....O.b h | ) ! ! ! Q Q R T T Z 0 j x Z I I C  .( C C C B B B l B x N D f.Y S Z U z u <.7 @ I.Y.).'.'.'.",
"'.'.'.'./.~.;X8Xb.q.m ] ] ' ] _ g F Q Q Q R T T T T T C 0 j x Z I I C  .( B B B l l l l x x l u.$.C Z Z S e r :.$ X W.`.'.'.'.'.",
"'.'.'.'.L.qXfX6Xb.c.J Z ^ ^ ] ] c g W T T T T T T U U C 0 j x Z I I I  .( N N N l l l l x l } D.A Z Z Z B : >.-.& |.R.).'.'.'.'.",
"'.'.'./.].iXdX7X:Xc.0.m ~ ~ ^ ^ ! z l U T U U T U Z Z C 0 j x Z I I I  .( l N l l l l l l n D.%.C Z C U 0 r >.6 @ Q.Y.).'.'.'.'.",
"'.'.'.L.[.pXhXfX6Xv.0.J Z ~ E ~ ~ W l B U U U U Z Z Z B 0 g l C C I C [ D l l l l l l l l S.u.V Z Z Z z : y -.% XX!._.'.'.'.'.'.",
"'.'.'.L.[.pXhXdX7X:Xx.9.G E ~ E E E W x C Z Z Z Z C C B g H }  . . .+.l.D l l l l z l l S.D.C Z Z C Z , r :.6 @ I.Y.).'.'.'.'.'.",
"'.'.'.).'.eXkXdXfX6Xv.0.5.z E E E E E W C C C C C C C C A +.+.+.r.r.i.i.c l l l z z n ,XD.Z C Z C U g a 0.,.. oX!.`.'.'.'.'.'.'.",
"'.'.'.'.P.+XcXhXdX7X>Xv.0.f N ~ E E E E T Z Z C C C C B N N N N N l l l z l l z z H 5Xm.C C C C U z 1 q.M.:X# W.Y.).'.'.'.'.'.'.",
"'.'.'.'.'.L.wXlXhXdX6X:Xx.0.p B E T E T R T T T Z B B N N B x x x l l l z z z H S.5Xr.V Z Z C Z N < w.M.,X0X-XK.).'.).'.'.'.'.'.",
"'.'.'.'.'./.).%XpXhXfX6X7.1.1.p B E T T T T T R E ! W A x l l l z l z z n e.,X5Xu.A V C C C U N < 2.M.,X3XgXgXrX[.P.'.'.'.'.'.'.",
"'.'.'.'.).'.'.P.}.+X$X#X* 6 :.d p l E T T T T T T R ] O. . .%.%.+.r.y.l.D.D.u.A V C C C C U z < 2.M.S.3XgXgXnXBXCX@XP.'.'.'.'.'.",
"'.'.'.'.'.'.'.'./.L.T.^.|.# 6 ;.d a h T R T T T T T T U W ` O. .$.+. .| A C V C Z C C C Z h 1 w.M.S.3X0XgXnXBXBXBXNX+XP.'.'.'.'.",
"'.'.'.'.'.'.'.'.'.'.).Y.W.oX# 6 ;.d a e l T R T U S T U Z Z Z Z C C V C Z Z C Z C Z S z , a 0.M.,X3X0XgXnXVXBXBXBXBXiXL.'.'.'.'.",
"'.'.'.'.'.'.'.'.'.'.'.).Y.W.|.@ 4 -.>.y i h N T T T Z Z Z Z Z Z Z C C C C C C Z S N 0 2 2.q.M.,X0XgXnXnXMXMXNXVXNXVXCX[.L.'.'.'.",
"'.'.'.'.'.'.'.'.'.'.'.'.).Y.W. X+ % 7 :.<.y i e z V Z T T Z Z Z Z Z Z U U Z B k e : s 9.c.b.,X0XgXnXnXVXmXvXmXmXmXmXvX+XL.'.'.'.",
"'.'.'.'.'.'.'.'.'.'.'.'.'.).`.R.I.XX# $ 5 :.<.y u w e 0 h z l l l z z g h < w s 1.9.x.x.:X8X9XgXnXnXBXBXmXcXvXvXvXvXhX[./.'.'.'.",
"'.'.'.'.'.'.'.'.'.'.'.'.'.'.'._.Y.W. XX & $ 5 :.>.y y r 1 1 1 : : : 1 a f 2.9.0.x.v.:X>X6XfXZXCXCXMXNXVXvXkXlXlXlXvXeX).'.'.'.'.",
"'.'.'.'.'.'.'.'.'.'.'.'.'.'.'.'.).Y.R.Q.|.+ # % 6 5 ,.:.>.>.>.>.>.>.<.9.c.x.v.v.:X>X6X7XfXdXhXbXvXmXmXmXcXjXjXaXkXaXOXP.'.'.'.'.",
"'.'.'.'.'.'.'.'.'.'.'.'.'.'.'.'.'.)._.Y.R.Q. XXX+ # & $ 4 6 7 7 5 7 6 5 *X>X8X6X;X7XfXdXhXhXjXkXlXcXvXvXcXlXlXcXpX+XJ.'.'.'.'.'.",
"L.'.'.'.(.(.'.'.'.'.'.'.'.'.'.'.'.'.'.)._.`.Y.!.Q.I.|.XXX + @ @ @ @ + o X #X$X#XQ.$XhXaXjXjXjXjXjXjXcXiX&XeXeX&X{.L.'.'.'.'.L.P.",
"OXL.P.P.}.].P.(.'.'.'.'.'.'.'.'.'.'.'.'.'.).)._.`.Y.R.!.W.Q.Q.Q.Q.Q.Q.W.!.T.T.T.).`.eXcXjXjXjXjXjXlXpXOXJ.)./.P./.'.'.'.'.P.[.+X",
"VXrXOXtXCXCXrX}.P.'.'.'.'.'.'.'.'.'.'.'.'.'.'.'.).).)._.`.`.Y.Y.Y.Y.`.`._._.).).'.(.].wXaXkXlXkXaXeX[.P.'.'.'.'.'.'.'.).).wXvXVX",
"BXBXMXBXBXBXBXhX_.L.'.'.'.'.'.'.'.'.'.'.'.'.'.'.'.'.'.'.'.'.'.'.'.'.'.'.'.'.'.'.'.'./.L.OX%X&X%X+X).P.'.'.'.'.'.'.'.'./.wXvXvXNX",
"VXBXBXVXBXBXBXBXqX)./.'.'.'.'.'.'.'.'.'.'.'.'.'.'.'.'.'.'.'.'.'.'.'.'.'.'.'.'.'.'.'.'.'.L.P.L.L.P.'.'.'.'.'.'.'.'.'.P.OXjXkXcXmX",
"mXNXBXVXVXBXBXBXBXhXOXP.'.'.'.'.'.'.'.'.'.'.'.'.'.'.'.'.'.'.'.'.'.'.'.'.'.'.'.'.'.'.'.'.'.'.'.'.'.'.'.'.'.'.'.'.'.'.P.+XkXjXkXvX"
};
