/* XPM */
static char *_0acda8cc71e49c8cafb1002b629fe24F2b5oLmYUyvqqiij[] = {
/* columns rows colors chars-per-pixel */
"64 64 236 2 ",
"   c #251815",
".  c #3E251C",
"X  c #5C1E0D",
"o  c #521D0D",
"O  c #4A1C14",
"+  c #542315",
"@  c #6E230C",
"#  c #66210F",
"$  c #73250F",
"%  c #692512",
"&  c #732612",
"*  c #772812",
"=  c #4E1F23",
"-  c #551F39",
";  c #751C33",
":  c #741F3B",
">  c #4C2025",
",  c #532A3C",
"<  c #6A2F3B",
"1  c #734B35",
"2  c #3C2C68",
"3  c #3C326B",
"4  c #3C3266",
"5  c #3A3373",
"6  c #393679",
"7  c #38377B",
"8  c #2F357F",
"9  c #482744",
"0  c #462649",
"q  c #532A47",
"w  c #452D5E",
"e  c #4D2C59",
"r  c #4B2C56",
"t  c #4B325D",
"y  c #4C3059",
"u  c #54395C",
"i  c #563656",
"p  c #522B54",
"a  c #663B52",
"s  c #6A364A",
"d  c #442E61",
"f  c #492F60",
"g  c #433267",
"h  c #403470",
"j  c #423F7F",
"k  c #543B62",
"l  c #481F42",
"z  c #5E4157",
"x  c #79565A",
"c  c #6E4D4D",
"v  c #51446E",
"b  c #785665",
"n  c #74726F",
"m  c #9A111D",
"M  c #97182C",
"N  c #911932",
"B  c #893925",
"V  c #903F29",
"C  c #B33136",
"Z  c #CF0B17",
"A  c #CE0B18",
"S  c #D00812",
"D  c #F70103",
"F  c #FD0004",
"G  c #FE0308",
"H  c #F7080B",
"J  c #F41518",
"K  c #F70F10",
"L  c #C13D3F",
"P  c #F32427",
"I  c #F53235",
"U  c #F31E21",
"Y  c #976816",
"T  c #AD7915",
"R  c #A57315",
"E  c #B27E19",
"W  c #974124",
"Q  c #974427",
"!  c #905332",
"~  c #916935",
"^  c #A4782A",
"/  c #A47A36",
"(  c #F53E41",
")  c #C23E40",
"_  c #845354",
"`  c #8D6B52",
"'  c #8E6A74",
"]  c #8E6F79",
"[  c #997377",
"{  c #8C6D70",
"}  c #AA736A",
"|  c #A8746D",
" . c #F34A4C",
".. c #F15657",
"X. c #F64E51",
"o. c #E45E61",
"O. c #F16667",
"+. c #F27778",
"@. c #E56063",
"#. c #D55D61",
"$. c #B98619",
"%. c #B18833",
"&. c #CA991D",
"*. c #C08C19",
"=. c #D7A61E",
"-. c #D7AA24",
";. c #D1AC36",
":. c #E4BA26",
">. c #F3D131",
",. c #97867C",
"<. c #B08E5E",
"1. c #E3BE41",
"2. c #C9AF51",
"3. c #EFD253",
"4. c #F0DC74",
"5. c #1C3C9E",
"6. c #16379D",
"7. c #0D2F98",
"8. c #2E3B8D",
"9. c #2A3386",
"0. c #353983",
"q. c #313B8A",
"w. c #343781",
"e. c #2C3E94",
"r. c #253E9C",
"t. c #293F99",
"y. c #253A95",
"u. c #163AA2",
"i. c #1B3CA4",
"p. c #1B3DA7",
"a. c #203FA5",
"s. c #26409D",
"d. c #29419C",
"f. c #2E4296",
"g. c #354692",
"h. c #1E41A6",
"j. c #1F41A8",
"k. c #2343A5",
"l. c #2344A8",
"z. c #2C4CA6",
"x. c #3756AA",
"c. c #3353AC",
"v. c #5B639B",
"b. c #766989",
"n. c #405DAC",
"m. c #4766B3",
"M. c #5876BB",
"N. c #4E69B0",
"B. c #647BB5",
"V. c #6677AD",
"C. c #595385",
"Z. c #86768A",
"A. c #7585B6",
"S. c #6683C3",
"D. c #7791C8",
"F. c #8F8887",
"G. c #8F8888",
"H. c #938D89",
"J. c #9C848A",
"K. c #998998",
"L. c #9E9B99",
"P. c #9B9997",
"I. c #8E9191",
"U. c #A48E97",
"Y. c #AA9298",
"T. c #B39797",
"R. c #A88B88",
"E. c #8C98B8",
"W. c #A395A5",
"Q. c #B59CA2",
"!. c #A39FB6",
"~. c #BEA2A5",
"^. c #ACA8B8",
"/. c #F4999A",
"(. c #F18585",
"). c #C8B1B1",
"_. c #F4A8A9",
"`. c #F2BABA",
"'. c #EFA2A2",
"]. c #FAEA8D",
"[. c #D6C0BD",
"{. c #F7EAAA",
"}. c #839BCB",
"|. c #819FD0",
" X c #97A6C9",
".X c #99B4DD",
"XX c #8FA7D3",
"oX c #AAAEC3",
"OX c #B6B8C8",
"+X c #ABB3CD",
"@X c #A3BDE2",
"#X c #9DB7E0",
"$X c #CABEC4",
"%X c #B7C1C4",
"&X c #BAC1C4",
"*X c #B9C7DE",
"=X c #AAC1DF",
"-X c #ABC5E6",
";X c #B7CBE6",
":X c #BDD3EE",
">X c #BED5F1",
",X c #DAC7C6",
"<X c #C6CCDB",
"1X c #D2CDD4",
"2X c #F3C6C6",
"3X c #E4D6D5",
"4X c #F5D6D6",
"5X c #E0CBC4",
"6X c #C5D6EB",
"7X c #D6DBE6",
"8X c #C1D7F2",
"9X c #C4DAF3",
"0X c #CBDDF4",
"qX c #CADEF8",
"wX c #D0DFF3",
"eX c #CCE2F7",
"rX c #D4E3F5",
"tX c #D9E6F5",
"yX c #DBE8F7",
"uX c #D7E2E9",
"iX c #E9E7E9",
"pX c #F4EEEC",
"aX c #F9EDEB",
"sX c #F5E7E3",
"dX c #F6F0ED",
"fX c #E3ECF5",
"gX c #E5EDF9",
"hX c #E9EDF2",
"jX c #EDF3F9",
"kX c #ECF1F5",
"lX c #F5F4F4",
"zX c #F2F6FA",
"xX c #F6F9FB",
"cX c #FDFEFD",
"vX c #F9F6F4",
"bX c #F9F1D0",
/* pixels */
"rXjXcXcXcXcXcXcXcXcX7Xz.j.l.l.l.l.l.l.l.k.k.s.e.0.6 2 d t t d 2 7 8.t.k.l.l.l.l.l.l.l.l.l.l.l.l.l.l.l.l.l.l.l.l.l.l.u.S.9X8X8X9X",
"eXfXxXcXcXcXzXzXxXxXcXA.u.l.l.l.l.l.l.l.k.k.e.0.5 w x %.;.2.<.x d 6 q.t.k.l.l.l.l.l.l.l.l.l.l.l.l.l.l.l.l.l.l.l.l.i.N.:X8X8X8X8X",
"9XtXjXcXcXcXzXyXgXgXzX}.6.l.l.l.l.l.l.l.k.d.q.5 t ~ -.:.3.].].4.` 2 6 e.s.k.l.l.l.l.l.l.l.l.l.l.l.l.l.l.l.l.l.l.l.i..XeX8X8X8X8X",
"8X0XyXjXxXcXjX0X0X0XtXM.u.l.l.l.l.l.l.k.k.e.7 2 c &.=.:.3.{.bX].3.c 2 0.d.k.k.l.l.l.l.l.l.l.l.l.l.l.l.l.l.l.l.l.l.h.#XqX8X8X8X8X",
"8X8X0XtXyXgXyX8X8XeX.Xk.l.l.l.l.l.l.l.k.s.8.5 t ^ $.&.-.1.4.{.].>.%.2 7 e.k.l.l.l.l.l.l.l.l.l.l.l.l.l.l.l.l.l.l.l.u.M.eX9X9X0X8X",
"8X8X8X9X0XrX8X:X>X|.z.h.l.l.l.l.l.l.l.k.s.q.5 z E T *.&.-.1.3.3.>.;.t 6 e.s.k.l.l.l.l.l.l.l.l.l.l.l.l.l.l.l.l.l.l.l.k.S.-X@XD.:X",
"9X9X9X9XeX@Xx.x.x.i.p.l.l.l.l.l.l.l.l.k.s.q.5 z $.T T $.&.-.-.:.:.;.t 6 e.r.k.h.6.6.5.6.u.h.l.k.k.l.k.l.l.k.k.k.l.l.k.u.l.l.u.D.",
"S.-X:X;X|.c.p.h.h.l.l.l.l.l.l.l.l.l.l.k.s.8.5 u %.E R T $.$.&.&.=./ w 5 q.f.5.f.B. X+X XV.d.5.k.k.k.k.k.k.k.k.k.k.k.k.k.k.k.h.k.",
"u.z.x.c.i.h.l.l.l.l.l.l.l.l.l.l.l.l.l.k.k.e.7 2 ` *.T R R R T $.$.c r b.^.OXE.<XsXaXaXaXsX$Xv.y.y.y.t.t.e.t.t.e.e.e.t.r.s.k.k.l.",
"l.l.p.j.l.l.l.l.l.l.l.l.l.l.l.l.l.l.l.l.k.t.q.5 u / $.T R Y Y Y 1 q b Y.).[.,X,X).).,X,X,X,X).C.j C.7 8 w.w.0.0.w.0.0.0.8.e.s.k.",
"l.l.l.l.l.l.l.l.l.l.l.l.l.l.l.l.l.l.l.l.k.s.e.0.2 i ~ ^ ^ Y ! 1 , q b ] J.U.Y.T.T.T.T.T.T.T.T.Y.R.U.Z.v 4 4 4 4 4 3 3 5 7 q.e.k.",
"l.l.l.l.l.l.l.l.l.l.l.l.l.l.l.l.l.l.l.l.l.k.s.8.6 w i ,.n n _ m m M C C C C L L L L L L L L L L L L ) C C C M M M M M N p 7 8.s.",
"l.l.l.l.l.l.l.l.l.l.l.l.l.l.l.l.l.l.l.l.l.k.k.e.0.d i F.n I.#.F F F F F F F F F F F F F F F F F F F F F F F F F F F F F : 5 0.t.",
"l.l.l.l.l.l.l.l.l.l.l.l.l.l.l.l.l.l.l.l.l.l.k.d.q.3 u G.H.OXo.D F F F F F F F F F F G G F F F G F F F F F F F F F F F F ; 3 0.t.",
"l.l.l.l.l.l.l.l.l.l.l.l.l.l.l.l.l.l.l.l.l.l.k.s.q.3 u G.L.%Xo.F F F F F F F F F F F F D D D D D F F F F F F F F F F F D ; 3 0.t.",
"l.l.l.l.l.l.l.l.l.l.l.l.l.l.l.l.l.l.l.l.l.l.k.r.8.5 u H.L.%Xo.F F F F F F F F F F D  ./.`.2X_.+.J D F F F F F F F F F D ; 3 0.e.",
"l.l.l.l.l.l.l.l.l.l.l.l.l.l.l.l.l.l.l.l.l.l.k.r.8.2 z H.L.%Xo.F F F F F F F G F J '.xXcXcXcXcXcX4X..D F F F F F F F F D ; 3 0.e.",
"l.l.l.l.l.l.l.l.l.l.l.l.l.l.l.l.l.l.l.l.l.l.k.r.g.Z.[ H.L.%Xo.F F F F F F F F J `.cX_.2XcXcXvX/.aXxX..D F F F F F F F D ; 3 0.e.",
"l.l.l.l.l.l.l.l.l.l.l.l.l.l.l.l.l.l.l.l.l.l.k.r.A.Q.] H.L.%Xo.F F F F F F F D (.cXaXP P sXcX(.D /.cX4XU F F F F F F F D ; 3 0.e.",
"l.l.l.l.l.l.l.l.l.l.l.l.l.l.l.l.l.l.l.l.l.l.i.z.oXK.] H.L.%Xo.F F F F F G F P 4XcX/.D D X./.H D ( aXcX+.D G F F F F F D ; 3 0.e.",
"l.l.l.l.l.l.l.l.l.l.l.l.l.l.l.l.l.l.l.l.l.l.i.g.oXU.] H.L.%Xo.F F F F F G D ..cXaXI F  .F D P I D '.cX`.D F G F F F F F ; 3 0.e.",
"l.l.l.l.l.l.l.l.l.l.l.l.l.l.l.l.l.l.l.l.l.l.k.y.A.W.] H.L.%Xo.F F F F F F D O.cX/.D I pXX.D `./.D ( xX4XH F G F F F F D ; 3 0.e.",
"l.l.l.l.l.l.l.l.l.l.l.l.l.l.l.l.l.l.l.l.l.l.k.r.g.b.' H.L.%Xo.F F F F F F D O.lXI D +.cX4X_.cX4XJ D _.4XH F F F F F F F ; 3 0.e.",
"l.l.l.l.l.l.l.l.l.l.l.l.l.l.l.l.l.l.l.l.l.l.k.s.8.2 u F.L.%Xo.F F F F F F F  .2XK D 2XcXxXcXxXxXX.D +._.D F F F F F F F ; 3 0.e.",
"l.l.l.l.l.l.l.l.l.l.l.l.l.l.l.l.l.l.l.l.l.l.k.s.8.5 u F.L.%Xo.F F F F F G F K 2X_. .dXcXcXcXcXcX/...pX..D G F F F F F F ; 3 0.e.",
"l.l.l.l.l.l.l.l.l.l.l.l.l.l.l.l.l.l.l.l.l.l.k.s.8.5 u G.L.%Xo.F F F F F F G D ..xXdXvXcXcXcXcXcXdXcX`.H F F F F F F F F ; 3 0.e.",
"l.l.l.l.l.l.l.l.l.l.l.l.l.l.l.l.l.l.l.l.l.l.k.s.8.5 u G.L.%Xo.F F F F F F F F D (.cXcXcXcXcXcXcXcX2XP F F F F F F F F D ; 3 0.e.",
"l.l.l.l.l.l.l.l.l.l.l.l.l.l.l.l.l.l.l.l.l.l.k.s.8.5 u G.L.%Xo.F F F F F F F F F D O.4XxXcXcXcXaX/.P D F F F F F F F F D ; 3 0.e.",
"l.l.l.l.l.l.l.l.l.l.l.l.l.l.l.l.l.l.l.l.l.l.k.s.8.5 u F.L.%Xo.F F F F F F F F F F D J ..+.+.O.I D F F F F F F F F F F D ; 3 0.t.",
"l.l.l.l.l.l.l.l.l.l.l.l.l.l.l.l.l.l.l.l.l.l.k.s.8.3 u F.L.%Xo.F F F F F F F F F F F F D D D D F F F F F F G G G F F F D ; 3 0.t.",
"l.l.l.l.l.l.l.l.l.l.l.l.l.l.l.l.l.l.l.l.l.l.k.s.8.3 u F.L.%Xo.F F F F F F F F F F F F F F F F F F F F F F F F F F F F F ; 3 0.t.",
"l.l.l.l.l.l.l.l.l.l.l.l.h.p.i.p.j.l.l.l.l.l.k.s.8.3 u F.L.%X#.S Z Z A A A A A A A A A A A A A A A A A A A A A A A A A A s 6 q.d.",
"l.l.l.l.l.l.l.l.l.l.l.u.z.N.M.N.z.6.k.l.l.l.l.s.8.3 u F.L.&XJ.- q p e e e e e e e e e e e e e e e e e e e e e e e e e w 3 0.e.s.",
"l.l.l.l.l.l.l.l.l.l.a.D.7XlXcXlX7XA.5.p.i.u.u.s.q.3 u F.L.&XK.9 f 3 6 6 6 6 6 6 6 6 6 6 6 6 6 6 6 6 6 6 6 6 6 6 6 6 6 7 0.e.d.k.",
"l.l.l.l.l.l.l.l.l.i.XXcXcXcXcXcXcXcXE.x.A.A.N.e.8.3 u F.L.&XK.0 h 0.q.8.8.8.8.8.e.e.e.e.e.e.e.e.e.e.e.e.e.e.e.e.e.e.e.e.t.s.k.k.",
"l.l.l.l.l.l.l.l.u.B.jXjXxXcXcXxXvXdXiX3XpXpXiX!.g.2 u F.L.&XK.r 5 0.e.e.e.e.e.t.t.d.s.s.k.k.k.k.k.k.k.k.s.k.k.k.k.k.k.k.k.k.k.l.",
"l.l.l.l.l.l.l.l.k.=XgXgXzXcXvXpXiX3X3X3X,X,X,X5XK.w i F.L.OXK.0 g 6 0.0.q.q.q.q.8.e.d.k.k.k.k.k.k.k.k.k.k.k.k.k.k.k.k.l.k.l.l.l.",
"l.l.l.l.l.l.l.p.c.:XrXyXgXkXpX3X,X).).).~.~.Q.T.R.i q H.P.&XK.l r d 3 3 3 3 3 5 7 0.e.s.k.l.l.l.l.l.l.l.l.l.l.l.l.l.l.l.l.l.l.l.",
"l.l.l.l.k.l.i.z.}.fXjXjXkXiX3X$XT.,.| } } } } } } _ s ,.R.).R.< s s a a a a a a k 5 q.t.k.l.l.l.l.l.l.l.l.l.l.l.l.l.l.l.l.l.l.l.",
"l.l.l.l.l.i.n.-XgXxXcXcXcXpX1X).[ B W W W W W W W W W Q Q ! Q W W W W W W W V W ! f 7 e.k.k.l.l.l.l.l.l.l.l.l.l.l.l.l.l.l.l.l.l.",
"l.l.l.l.i.c.-XrXtXjXcXcXxXpX,XQ.{ X O   # & $ $ $ $ $ $ $ @ @ $ $ $ $ $ $ #   o B y 6 e.s.k.l.l.l.l.l.l.l.l.l.l.l.l.l.l.l.l.l.l.",
"l.l.l.l.u.|.eX8XrXgXzXcXcXiX$XQ.` X + . % & & & & & & & & & & & & & & & & % . X B y 6 e.s.k.l.l.l.l.l.l.l.l.l.l.l.l.l.l.l.l.l.l.",
"l.l.l.h.z.-X9X8X0XtXgXzXxX7XOXQ._ X * * & & & & & & & & & & & & & & & & & & * * B e 6 e.s.k.l.l.l.l.l.l.l.l.l.l.l.l.l.l.l.l.l.l.",
"l.l.l.i.x.;X9X8X8X0XtXyXfX<XOXY._ X & & & & & & & & & & & & & & & & & & & & & $ B y 5 8.5.k.l.i.u.i.i.u.l.l.l.l.l.l.l.l.l.l.l.l.",
"l.l.l.i.x.;X9X8X8X8X0XeX0X*XoXU._ X $ & & & & & & & & & & & & & & & & & & & & $ V { U.!.V.i.u.c.A. X XB.s.p.l.l.l.l.l.l.l.l.l.l.",
"l.l.l.k.l..X9X8X8X8X8X8X8X;XoXU.x X $ & & & & & & & & & & & & & & & & & & & & $ Q [ ).3XvX+XB.uXcXcXcXcX<Xn.i.l.l.l.l.l.l.l.l.l.",
"l.l.l.l.u.M.eX8X8X8X8X9X:X*XoXK.x X & & & & & & & & & & & & & & & & & & & & & $ Q [ ).3XdXcXxXcXcXcXcXcXcX7Xx.h.l.k.l.l.l.l.l.l.",
"l.l.l.l.l.i.|.qX9X8X8X8X8X*XoXK.x X & & & & & & & & & & & & & & & & & & & & & $ Q [ ~.3XpXxXcXxXcXcXcXcXxXcX X7.h.l.k.l.l.l.l.l.",
"l.l.l.l.l.h.k.S.-X9X9X9X-XV.v.K.x X $ & & & & & & & & & & & & & & & & & & & & $ Q [ ~.1XpXxXcXxXxXcXcXcXcXcXkX Xx.u.l.l.l.l.l.l.",
"l.l.l.l.k.l.l.i.z.M.S.M.z.5.9.v c X $ & & & & & & & & & & & & & & & & & & & & $ V ' Q.1XiXzXcXxXlXxXcXcXcXcXcXcXhXB.u.l.l.l.l.l.",
"l.l.l.l.l.l.l.l.h.i.u.u.i.r.q.3 9 X $ & & & & & & & & & & & & & & & & & & & & $ V ' W.<X7XzXcXcXcXcXxXcXcXcXcXcXcXlXN.i.l.l.l.l.",
"l.l.l.l.l.l.l.l.l.l.l.l.k.r.q.h 9 X $ & & & & & & & & & & & & & & & & & & & & $ V ' W.OX7XjXcXcXcXcXcXxXxXcXcXcXcXcX*Xi.l.l.l.l.",
"l.l.l.l.l.l.l.l.l.l.l.l.k.r.q.h 9 X $ & & & & & & & & & & & & & & & & & & & & $ V ' W.OX7XkXxXcXcXcXcXxXjXjXzXxXxXxXfXx.i.l.l.l.",
"l.l.l.l.l.l.l.l.l.l.l.l.k.t.q.h 9 X $ & & & & & & & & & & & & & & & & & & & & $ V ' W.OX6XfXjXxXcXcXcXcXfXyXgXgXgXgXtXm.i.l.l.l.",
"l.l.l.l.l.l.l.l.l.l.l.l.k.t.q.h 9 X $ & & & & & & & & & & & & & & & & & & & & $ V ' W.+X6XrXfXjXxXcXcXcXfXwXtXtXtXtX0Xx.h.l.l.l.",
"l.l.l.l.l.l.l.l.l.l.l.l.k.t.q.h 9 X & & & & & & & & & & & & & & & & & & & & & $ V ' W.+X;X0XtXgXjXzXzXxXyX9X0X0X0XrX.Xk.l.l.l.l.",
"l.l.l.l.l.l.l.l.l.l.l.l.k.r.q.h 9 X & & & & & & & & & & & & & & & & & & & & & $ Q ' W.OX;X8X0XrXyXfXgXgXrX8X8X>X9X:Xm.p.l.l.l.l.",
"l.l.l.l.l.l.l.l.l.l.l.l.k.r.q.h 9 X & & & & & & & & & & & & & & & & & & & & & $ V ' W.OX;X8X8X9X0XrXrXyXeX0X0XeX;XM.5.l.l.l.l.l.",
"i.l.l.l.j.l.l.l.l.l.l.l.k.r.q.h 9 X & & & & & & & & & & & & & & & & & & & & & * B b W.+X;X8X8X8X8X8XeX=XD..X.XD.c.5.l.l.l.l.i.i.",
"n.i.u.p.z.z.u.h.l.l.l.l.k.r.q.h 9 X X O @ & & & & & & & & & & & & & & & & % O # B y Z.OX;X>X8X8X8X0X;Xn.6.k.h.u.h.l.l.l.l.p.x.M.",
"lX Xn.+XhXhX Xz.p.l.l.l.k.s.q.5 9 X O   # & & & & & & & & & & & & & & & & %   O B r 6 A.*X9X0X9X>X.Xx.p.l.l.l.l.l.l.l.k.l.|.yXxX",
"cXcXkXcXcXcXcX<Xz.i.l.l.k.s.8.5 0 X % % @ @ @ @ @ @ @ @ @ @ @ @ @ @ @ @ @ & % @ B t 7 y.n.B.D.S.m.l.p.l.l.l.l.l.l.l.l.h.|.tXyXzX",
"xXcXcXxXcXcXcXcX}.k.h.l.k.k.e.7 w > = = = = = > = = = = = = > > = = = = = = = > , g 0.t.i.i.i.i.p.l.l.l.l.l.l.l.l.l.p.m.8X9XrXgX",
"gXzXcXxXcXcXcXcXcX6Xm.p.l.k.d.q.6 h d d w w w w w w w d d d d d w d d w w d d d 5 7 e.d.k.l.l.l.l.l.l.l.l.l.l.l.l.l.u.M.9X8X9XtX"
};
