/* XPM */
static char *result[] = {
/* columns rows colors chars-per-pixel */
"64 64 153 2 ",
"   c #0D2F98",
".  c #15379F",
"X  c #15389F",
"o  c #1A3C9F",
"O  c #1337A2",
"+  c #163AA2",
"@  c #1B3DA4",
"#  c #1D3FA8",
"$  c #203FA5",
"%  c #1E419E",
"&  c #26459F",
"*  c #1E41A6",
"=  c #1E41A8",
"-  c #2244A6",
";  c #2846A2",
":  c #2649A6",
">  c #2B4BA5",
",  c #2344A8",
"<  c #2749A8",
"1  c #2D4DA9",
"2  c #334EA5",
"3  c #2F50AC",
"4  c #3251A6",
"5  c #3956A5",
"6  c #3D5AA2",
"7  c #3354AA",
"8  c #3C59AC",
"9  c #3758B0",
"0  c #3B5BB0",
"q  c #3F60B0",
"w  c #405EA7",
"e  c #415DAD",
"r  c #415EB1",
"t  c #4563AD",
"y  c #4964AF",
"u  c #536CAE",
"i  c #4363B1",
"p  c #4965B1",
"a  c #4768B4",
"s  c #4D6BB4",
"d  c #536EB4",
"f  c #586FB1",
"g  c #526FB9",
"h  c #5975B6",
"j  c #5573BB",
"k  c #5A75BA",
"l  c #5C7BBC",
"z  c #6379B3",
"x  c #6C7FB7",
"c  c #637EBC",
"v  c #637FC2",
"b  c #6582BF",
"n  c #6E83BB",
"m  c #7387BB",
"M  c #7489BD",
"N  c #6281C2",
"B  c #6986C3",
"V  c #6D8AC2",
"C  c #738DC5",
"Z  c #798EC0",
"A  c #728FC9",
"S  c #7790C6",
"D  c #7D98C7",
"F  c #7492C9",
"G  c #7B97CC",
"H  c #7E9CCC",
"J  c #839AC6",
"K  c #8A9BC4",
"L  c #829CCD",
"P  c #819FD0",
"I  c #8FA2CC",
"U  c #94A3C7",
"Y  c #9BACC7",
"T  c #93A3CC",
"R  c #9AABCC",
"E  c #86A4D2",
"W  c #8DA9D5",
"Q  c #93A7D0",
"!  c #90ACD4",
"~  c #94AEDA",
"^  c #9BB3D7",
"/  c #96B1DC",
"(  c #9AB4DD",
")  c #9FBADF",
"_  c #A3AFD0",
"`  c #A3B2D2",
"'  c #A8B4D1",
"]  c #ADBAD6",
"[  c #A4B7D8",
"{  c #A2BADE",
"}  c #B2BED5",
"|  c #B1BBD8",
" . c #9DB7E0",
".. c #9FBBE1",
"X. c #A3BDE1",
"o. c #AAC1DF",
"O. c #B3C1D5",
"+. c #BAC6D7",
"@. c #BBC7DA",
"#. c #A5C1E1",
"$. c #ABC5E6",
"%. c #ADC7E8",
"&. c #AEC9E8",
"*. c #B1C7E2",
"=. c #BDCDE3",
"-. c #B3CDEA",
";. c #BACFED",
":. c #B5D1EC",
">. c #BCD3EE",
",. c #BFD6F1",
"<. c #BED8F2",
"1. c #C5CEDE",
"2. c #C0CFE3",
"3. c #CCD3E2",
"4. c #CCD8E7",
"5. c #C2D7EE",
"6. c #C5DAEF",
"7. c #CADBEE",
"8. c #D2D7E4",
"9. c #D4DCE5",
"0. c #D3DEEB",
"q. c #C2D7F2",
"w. c #C3D9F3",
"e. c #CADDF4",
"r. c #CADEF8",
"t. c #D0DFF3",
"y. c #D5E3EC",
"u. c #DCE4EE",
"i. c #C7E0F5",
"p. c #CDE1F5",
"a. c #CBE2F9",
"s. c #D4E3F5",
"d. c #D9E6F6",
"f. c #DDE9F6",
"g. c #D5E6F9",
"h. c #DAE7F8",
"j. c #D6EAF9",
"k. c #DDEAF9",
"l. c #E5EAEE",
"z. c #E8EDEF",
"x. c #E3EDF6",
"c. c #E9ECF0",
"v. c #E4EDF9",
"b. c #E9EFF9",
"n. c #ECF1F5",
"m. c #E7F1F9",
"M. c #ECF2FA",
"N. c #F3F5F5",
"B. c #F6F9F6",
"V. c #FAFBF7",
"C. c #F2F6FA",
"Z. c #F5F9FB",
"A. c #FDFEFD",
/* pixels */
"s.M.V.A.A.A.A.A.A.A.9.2 # , , , , , , , , , , , , , ; , , , , , , , , , , , , , , , , , , , , , , , , , , , , , , , + B w.q.q.w.",
"p.x.Z.A.A.A.N.M.Z.Z.A.n O , , , , , , , , , , , , , , , , , , , , , , , , , , , , , , , , , , , , , , ; , , , , , + g ,.w.w.q.w.",
"e.h.M.A.A.A.C.f.v.v.C.L O < , , , , , , , , , , , , , , , , , , , $ , , , , , , , , , , , , , , , , , , , , , , , @ / r.q.w.w.w.",
"5.e.h.M.C.A.M.e.s.e.g.k + , , , , , , , , , , , , , , , , , , , , , , , , , , , , , , , , , , , , , , , , , , , , , X.r.q.q.q.w.",
"q.q.e.h.f.v.f.q.w.a.~ - , , , , , , , < , , , , , , , , , , , , , , , , , , , ; , , , , , , , , , , , , , , , , , @ l r.w.r.r.q.",
"q.q.q.w.e.s.q.,.,.E 1 = , , , , , , , , , , , , , , , , , , , , , , = , , , , $ , , , < , , , , , , , , , , , , - , = v $.X.G ;.",
"r.r.<.w.r.X.9 0 7 @ # , , , , , , , , , , , , - , , , , , , , , , , - , # $ , $ . . o . + $ $ , , , , , , , , , , , , @ < , @ A ",
"N $.:.-.P 1 @ @ , , , , , , , , , , , , , , , , , , , , , , , , , , $ @ ; ; @ 2 m R ] R z ; @ , , , , $ , , , , , , - , , , $ , ",
"+ < 9 3 # $ , , , , , , , , , , , , , , , , , - = , , , , , , , , = > J 4.3.Y 9.A.A.A.A.A.4.f o = + = , = , , - , , , , , - , , ",
", , # $ , , , , , , , , , , , , , , , , , , , , , , , , , , , , , @ E k.Z.A.A.A.A.A.A.A.A.A.N.z 2 e ; * , , , - , = , , , = = , ",
", , , , , , , , , , , , , , , , , , , , , , , , , , , = = , - , * 1 -.7.f.N.V.A.A.A.A.A.A.A.A.N.l.N.@.8 + o @ - - , , , , , , , ",
", , , , , , ; , , , , , , , , , , , , , , , , , , , , , , , - - X u f.M.b.M.Z.A.A.A.A.A.A.A.A.A.A.V.Z.2.O.} f @ = - , , , , , , ",
", , , , , , , , , , , , , , , , , , , , , , , = = , , , = = = o b 2.b.M.f.b.N.A.A.A.A.A.A.A.A.A.V.x.s.s.V.A.N.z + < , , , , , , ",
", , , , , , , , , , , , , , , , , , , , , , , , , , , * % 4 > h i.6.w.i.s.f.m.Z.A.A.A.A.A.A.A.A.Z.s.w.5.N.C.Z.{ - , , , , , , , ",
", , , , , , , , , , , , , , , , < , , , , , , , , , = : E 9.9.:.<.<.5.6.e.s.k.M.C.Z.A.A.A.A.Z.Z.m.s.7.0.b.f.g.{ - , , , , , , , ",
", , , , , , , ; , , , , , , , , , , , , , , , , = , X D p.x.m.w.<.q.e.d.x.x.d.f.v.M.Z.C.Z.C.C.v.m.V.V.n.s.w.a.D @ , , , , , , , ",
", , , , , , , , # $ # $ < $ < # < # # $ < # # 3 * + 6 %.q.q.5.<.w.q.q.s.f.v.k.g.h.x.b.v.v.v.v.s.v.C.M.M.f.<.W 1 * - , , , , , , ",
", , , , , , , , 3 # 3 # # < $ < # < 3 $ # < # # > R u.6.q.q.w.w.q.w.5.e.a.s.k.v.s.p.s.s.g.s.s.s.f.f.h.d.j.^ % = - - , , , , , , ",
", , , , , , , , # < $ # 3 < # $ 3 < # $ , , $ $ E j.p.q.q.q.w.q.w.w.w.q.w.e.t.t.e.6.e.e.e.r.w.w.e.i.e.6.e.#.: * - - , , , , , , ",
", , , , , ; , , < $ < 3 # $ 3 # # $ 3 # , # $ 9 :.q.<.q.w.<.q.w.w.q.q.q.q.5.q.w.q.q.q.q.q.q.w.w.5.q.5.>.w.$.> = - , , , , , , , ",
", , , , , , , , # $ < # # 3 # 3 , , , , , , $ 9 :.<.<.q.w.w.q.w.w.w.w.w.q.w.q.q.q.q.w.q.q.q.w.w.q.q.q.5.i.( = - , , , , , , , , ",
", , , , , , , , 3 $ # < $ # $ # , , , , , , $ $ H p.q.e.w.q.w.q.q.w.w.w.w.q.w.q.q.w.w.w.q.q.q.w.q.q.<.<.w.l * , , , , , , < , , ",
", , , , , , , , # < $ # < $ # < , , , , , , , $ : G &.$.<.q.q.q.q.r.w.w.w.w.q.w.w.w.q.w.r.q.q.<.q.r.w.<.B * = , , , , , , , , , ",
", , , , , , , , < # < 3 # < < $ , , , , , , , , * % 1 : H p.<.q.q.q.q.q.q.q.w.w.q.w.w.w.q.q.<.w.:.E F t % = - - , , , , , , , , ",
", , , , 3 # $ < # 3 # $ < # 3 < , , , , , , , , , , # + 1 ..i.w.r.r.w.5.w.q.q.q.i.e.<.5.q.<.q.a.n X @ + = , = , , , , , , , , , ",
", , $ < # < < $ < # 3 # # < # $ , , , , , , , , , , , < * 4 G #.$.X.B y ( w.r.<.! %.a.i.e.a.:.C - , , - - , , , , , , , , , , , ",
", , , , < # $ < 3 # # $ < # < # , , , , , , , , , , , , - = * : < , o @ : s l 0 * 4 C W W F 8 @ = - = , , , , , , , , , , , , , ",
", $ < , $ # 3 # # < $ < $ < $ < , , , , , , , , , = , , - - - = $ $ , , - + + @ = * + * = X @ , , , , , , , , = - - , , , , , , ",
"< $ < $ < # # < $ < < # < # < # , , , , , , , , , , , , = , , , , = , , - , , , , , : , , , , , , , , = , , , , , , , , , , , , ",
"$ < # < # 3 < # 3 # $ < # < < # , , , , , , , , , = , , , , = , , , , , , , , , , , = , , , , , , , , , , , , , , , ; , , , , , ",
"< # < # $ < # < # < < < < $ < # , , , , , , , , , , , , , , , , , , = , , , , , : = , , , = = , , , , , , , , , , , , , , , , , ",
"$ < # < < # < # # $ # # # # # # , , , , , , , , , , = , , = , , , , , , , = , , = , , , = : , , , , = , , , , , , , , , , , , , ",
", , , , , , , = , , , + 2 d k d , o - , , < - - , , = , , = , , = , , , , , , = , , , , , , , , , , , , , , , , , , , , , , ; , ",
", , , , = , , , < $ @ Z 9.B.V.N.8.m o @ @ + + - : , , , , , , , , , : , , , , , , , , , , , , , , , , , , , , , , , , , , , , , ",
", , = , , , , , , + Q A.A.A.A.A.A.A.K 6 n C u - * = = , , , = , , , , , , : , , , , , , , , , , , , , , , , , , , , , , , , , , ",
", , , , , , , , O c M.M.Z.A.A.A.A.A.B.l.V.A.Z.} 1 * : , = , , , , , , , , , , , < , , , , , , , , , , , , , , ; , , , , , , , , ",
", , , , , , , = , X.b.b.C.A.A.A.A.A.A.A.A.A.A.A.O.- = , , , = , , , , , , , , , , , , , , , , , , , , , , , , , , $ , , , , , , ",
", , , , , , , @ 4 5.s.f.v.C.A.A.A.A.A.A.A.A.A.A.V.f O : - - , , , , , , , , , , , , , , , , , , , , , , , , , , , ; , , , , , ; ",
", , , , , , @ > J x.C.C.C.M.C.V.V.A.A.A.A.A.A.A.A.Y 4 * * - , , , , , , , , , , , , , , , , , , , , , , , , , , , , , , , , , , ",
", , , = , @ e *.b.C.A.A.A.V.b.m.Z.A.A.A.A.A.A.A.A.B.z._ > = , , , , , , , , , , , , , , , , , , , , , , , , , , , , , , , , , , ",
", , , , = 4 $.a.h.M.A.A.A.A.N.m.A.A.A.A.A.A.A.A.A.A.A.A.@.> = , , , , , , , , , , , , , , , , , , , , , , , , , , < , , , , , , ",
", , , , + P p.q.s.v.C.A.A.V.f.v.Z.A.A.A.A.A.A.A.A.A.A.A.A.m + , , , , , , , , , , , , , , , , , , , , , , , , , , # , , , , , , ",
", , , = 1 %.w.q.7.s.v.C.Z.x.t.x.b.Z.A.A.A.A.A.A.A.A.A.Z.A.` + < , , , , , , , , , - = , , , , , , , $ , , , , , , , , , , , , , ",
", < , = 8 -.w.q.q.e.s.k.M.e.w.f.v.M.Z.A.A.A.A.A.C.Z.Z.Z.A.` o , - , , , , , , + + , : * + , , @ O # @ @ $ , , , , , , , , , , , ",
", , - = 7 -.q.q.q.q.e.p.d.q.w.t.h.v.b.C.Z.A.Z.Z.b.b.b.v.Z.C + , - , , , , , o p Q =.3.| x @ . 2 V T I c & @ $ , , , , , , , , , ",
", , - - - { r.q.w.q.q.q.w.q.q.q.e.d.x.x.M.M.M.M.f.f.x.M.=.4 = , , , , , , @ b p.M.V.A.A.A.' z y.A.A.A.A.1.e $ $ , , , , , , , , ",
", , , , + h i.q.q.w.q.q.q.q.w.q.5.e.s.h.k.k.x.s.s.h.s.[ 8 = , , , , , , + l e.a.s.M.Z.A.A.A.B.A.A.A.A.A.A.9.7 $ , , , , , , , , ",
", - , , , * H a.w.q.q.q.e.w.5.w.5.q.w.w.r.e.g.V i c y - @ , , = , , , = < #.w.q.s.v.M.A.A.A.V.B.A.A.A.A.A.A.U   $ , , , , , , , ",
", , , , - = - B &.r.i.w.$.b l >.r.w.q.q.w.e.G - @ O # , , , , , , , , @ i <.q.w.e.d.b.C.Z.A.A.Z.Z.A.A.A.A.A.n.U 6 + , $ , , , , ",
", , , , , , = + > g N j 3 + + t ~ -.,.-.X.N % = - , , , , , , , , , , + j e.q.q.6.e.h.v.M.C.A.V.N.A.A.A.A.A.A.A.c.z @ , , , , , ",
", , , , - , , : = * X * = , = * $ 9 r r , o - , , = , , , , , , , , , + s w.q.q.q.w.e.s.b.C.A.A.A.A.Z.A.A.A.A.A.A.N.u + < , , , ",
", , , , , , - , - , , , , , , = $ $ $ $ , , - , , , , , , , , , - - = q #.<.q.w.q.q.q.s.k.C.A.A.A.A.A.V.A.Z.A.A.A.A.@.@ , , , , ",
", , , , , , , , , , , , , , , , ; , , , , , , $ , , , , , , , , , , < X.a.q.q.q.w.w.q.e.f.b.Z.A.A.A.A.V.M.M.C.Z.C.Z.l.8 $ , , , ",
", , , , , , , , , , , , , , , , , , , , , , , , , , , , , , , , < + j q.q.q.q.w.w.w.q.e.s.x.C.Z.A.A.A.A.b.f.x.b.v.b.f.p # , , , ",
", , , , , , , , , , , , , , , , , , , , , , , , , , , , , , , $ , @ N r.q.q.w.w.w.q.q.q.e.h.b.M.Z.A.A.A.b.t.s.f.h.h.7.9 $ , , , ",
", , , , , , , , , , , , , , , , , , , , , , , , , , , , , , , , , @ g <.q.w.q.w.q.q.q.5.w.t.s.v.M.C.C.Z.f.5.w.e.w.s.[ $ , , , , ",
", , , , , , , , , , , , , , = , , , , , , , , ; , , , , , , , , , , : ..a.<.<.q.q.q.w.w.q.q.e.s.h.x.v.m.s.>.<.<.e.>.i + < , , , ",
", , , , , , , , , , , , , , , , , , , ; , , , , , , , , , , , , , , * 8 ) r.a.r.$.:.w.q.w.q.>.e.e.p.s.k.p.r.e.a.-.k o , , , , , ",
"# , < , = = , - , , , = , , , , , , , , , , , , , , , < , , , , , , , * : j V l & S a.q.w.w.q.q.q.q.a.{ G / / F 4 o - , , , * + ",
"e + + @ 1 1 @ = , , , , , , , , , , , , , , , , , , , , , , , , , = , , , + + + * : / p.q.q.q.q.q.e.-.e . - = + = - - , , @ 0 g ",
"C.R e _ c.c.R 2 = = , , , , , , , , , , , , , , , , , , , , , , , , , , - , , , , - < L :.e.e.e.q.( e @ , , , , , , , = , P f.Z.",
"A.A.N.A.A.A.A.2.: = : , , , , , , , , , , < , , , , , , , , , , , = , , , , , , , , = @ q N A B a , @ , = , , , , , , = P g.x.C.",
"Z.A.A.C.A.A.A.A.K , * = , , , , , , , , , , , , , , , , , , , , , = , , , , , , , , , , @ + = @ @ , , , , , , , , , @ i w.q.s.v.",
"b.N.A.C.A.A.A.A.A.3.y * , , , , , , , , , , , , , , , , , , , , , , , , , , , , , , , , , < , , , , , , , , , , , < + j e.q.q.d."
};
