/* XPM */
static char *result[] = {
/* columns rows colors chars-per-pixel */
"64 64 253 2 ",
"   c #140C0B",
".  c #1A0D0C",
"X  c #1B1214",
"o  c #1C1519",
"O  c #100A0B",
"+  c #340B06",
"@  c #261718",
"#  c #351C19",
"$  c #250E0B",
"%  c #39221D",
"&  c #281D24",
"*  c #35153E",
"=  c #2C222A",
"-  c #36272C",
";  c #3A2C33",
":  c #302A38",
">  c #131539",
",  c #4E120B",
"<  c #7A0A05",
"1  c #6D140C",
"2  c #54261B",
"3  c #6E2519",
"4  c #46343A",
"5  c #54312B",
"6  c #63382D",
"7  c #74362C",
"8  c #421738",
"9  c #764537",
"0  c #7B412C",
"q  c #351E55",
"w  c #12284E",
"e  c #34245D",
"r  c #3A2458",
"t  c #2B2B4C",
"y  c #332663",
"u  c #342C6C",
"i  c #362A64",
"p  c #332E71",
"a  c #363274",
"s  c #34357B",
"d  c #3C3978",
"f  c #2F2D71",
"g  c #10286E",
"h  c #4D3C42",
"j  c #523F44",
"k  c #442957",
"l  c #593458",
"z  c #4F2C52",
"x  c #6D3953",
"c  c #30466A",
"v  c #554145",
"b  c #6B4159",
"n  c #6E4C4C",
"m  c #4E4876",
"M  c #714E65",
"N  c #756A69",
"B  c #890904",
"V  c #940B06",
"C  c #9C0E0A",
"Z  c #940E09",
"A  c #8C150C",
"S  c #9C120D",
"D  c #94150D",
"F  c #991812",
"G  c #A70B09",
"H  c #B80909",
"J  c #B21616",
"K  c #962518",
"L  c #8D2A19",
"P  c #953624",
"I  c #AC312B",
"U  c #8C1420",
"Y  c #C80607",
"T  c #D70608",
"R  c #CF1315",
"E  c #E70608",
"W  c #F4090C",
"Q  c #F70E12",
"!  c #E91517",
"~  c #FB1519",
"^  c #FA191E",
"/  c #F71316",
"(  c #E50F12",
")  c #FB1D22",
"_  c #F21F23",
"`  c #D12E30",
"'  c #FA252A",
"]  c #F92428",
"[  c #FC2C31",
"{  c #E73639",
"}  c #FB3539",
"|  c #E9272A",
" . c #C91E21",
".. c #864C36",
"X. c #944C33",
"o. c #8C523B",
"O. c #98573D",
"+. c #8D442D",
"@. c #AD4E39",
"#. c #983549",
"$. c #F63E41",
"%. c #E63D41",
"&. c #CB3A43",
"*. c #995C45",
"=. c #8D5153",
"-. c #A5544B",
";. c #956353",
":. c #AA6548",
">. c #B66B4D",
",. c #A96A57",
"<. c #B36D55",
"1. c #BC7453",
"2. c #B8755B",
"3. c #B9714F",
"4. c #8E5563",
"5. c #936C71",
"6. c #AB7468",
"7. c #B87666",
"8. c #B77A76",
"9. c #AC6D6D",
"0. c #D54B4A",
"q. c #F6474A",
"w. c #F14F50",
"e. c #C57C5A",
"r. c #C57B57",
"t. c #CE655A",
"y. c #C57B63",
"u. c #D2706D",
"i. c #E66667",
"p. c #F76665",
"a. c #F37674",
"s. c #D25D62",
"d. c #B9897B",
"f. c #CC815D",
"g. c #D5845E",
"h. c #C98366",
"j. c #DC8A63",
"k. c #D68866",
"l. c #CA8974",
"z. c #D9927B",
"x. c #D58D78",
"c. c #E38D64",
"v. c #E98D66",
"b. c #ED936A",
"n. c #EA9166",
"m. c #F4976C",
"M. c #E89777",
"N. c #F79C73",
"B. c #FA8573",
"V. c #FBA57A",
"C. c #FCAA7D",
"Z. c #F9A377",
"A. c #E5A07E",
"S. c #1A3A9D",
"D. c #093087",
"F. c #2D3A8C",
"G. c #2B3688",
"H. c #323782",
"J. c #313885",
"K. c #313988",
"L. c #293D94",
"P. c #263F9A",
"I. c #273D97",
"U. c #1B3CA4",
"Y. c #1A3CA5",
"T. c #0C1B9D",
"R. c #26409E",
"E. c #2E4E93",
"W. c #1E41A6",
"Q. c #0B50B2",
"!. c #2342A5",
"~. c #2344A8",
"^. c #2C4BA7",
"/. c #3958AC",
"(. c #3055AF",
"). c #0E6EB3",
"_. c #194E98",
"`. c #747094",
"'. c #4F6BB4",
"]. c #6474A8",
"[. c #4B579F",
"{. c #0867CC",
"}. c #2875CA",
"|. c #2229CB",
" X c #8F788B",
".X c #7286BB",
"XX c #2B8BDA",
"oX c #0795E6",
"OX c #6D8FCB",
"+X c #5F9DD7",
"@X c #44A3CE",
"#X c #988895",
"$X c #B08F8F",
"%X c #B0AAB5",
"&X c #9A9BAF",
"*X c #CF938C",
"=X c #ED9489",
"-X c #D4AD94",
";X c #E9A789",
":X c #FDAD81",
">X c #F4A888",
",X c #FDB286",
"<X c #FDB58A",
"1X c #FDB98D",
"2X c #F4AD99",
"3X c #FDBD92",
"4X c #F8B698",
"5X c #EAAE98",
"6X c #D69EA5",
"7X c #D3B0B0",
"8X c #ECB0AD",
"9X c #E49CA2",
"0X c #FEC296",
"qX c #FDC59B",
"wX c #FECA9E",
"eX c #F5C39C",
"rX c #FDCDA3",
"tX c #F9C9A8",
"yX c #FED3AB",
"uX c #FFD3A6",
"iX c #FEDAB4",
"pX c #FCDCB7",
"aX c #F1CCAB",
"sX c #FEE2BC",
"dX c #839DCC",
"fX c #94AFD3",
"gX c #B9B9C8",
"hX c #A9B3CA",
"jX c #A1BBE1",
"kX c #C8BCC7",
"lX c #BBC5D8",
"zX c #BCD3EE",
"xX c #B4CAE9",
"cX c #D0CAD2",
"vX c #E9D2CE",
"bX c #FDE9C6",
"nX c #FDEFD0",
"mX c #C7D7EA",
"MX c #D9DAE5",
"NX c #C2D7F2",
"BX c #C4DAF3",
"VX c #CBDDF4",
"CX c #CDE1F5",
"ZX c #D9E7F6",
"AX c #D9EDF7",
"SX c #E9E7E9",
"DX c #E5EDF6",
"FX c #EAF6FB",
"GX c #F4FBFD",
"HX c #FDFEFE",
"JX c #F2F5F8",
"KX c #F2E9E7",
"LX c #E4DEE3",
/* pixels */
"ZXFXGXHXHXHXHXHXHXHXMX^.!.~.!.!.~.~.~.!.!.!.P.P.L.K.K.H.s a p a p f p H.H.K.F.L.I.P.R.!.~.~.~.~.~.~.~.!.~.~.~.~.~.~.Y.OXBXNXNXBX",
"VXDXGXHXHXHXJXJXGXGXHXOXY.~.~.~.~.!.!.!.R.L.F.H.a u y r i l l l l l l k q y u a H.K.I.R.!.!.~.~.~.~.!.~.~.~.~.~.~.Y.'.zXNXBXNXNX",
"BXZXJXGXHXHXJXZXDXDXJXdXY.~.~.~.!.!.R.P.F.H.a y i l 4.#.s.w.w.$.%.$.%.&.#.#.l r i a J.F.L.R.!.!.~.~.~.~.~.~.W.~.~.W.fXVXNXNXNXBX",
"NXVXZXJXJXHXJXVXVXVXZX'.Y.~.~.!.!.R.L.K.s i r M 9.p.w.$.[ ' ' ) ) ) ) ) ) ) ' I x k i a K.L.P.!.!.~.~.~.~.~.~.~.~.W.jXVXNXBXNXNX",
"NXNXBXZXDXDXAXBXBXCXfX!.Y.~.!.!.P.F.H.u q x 8.a.q.} ' ' _ ) ) ) ) ^ Q Q ~ ~ ~ ~ ] ` l r u s F.I.!.!.~.~.~.~.~.~.~.Y.'.BXBXNXVXNX",
"NXNXNXBXVXCXNXzXzXdX(.W.!.!.!.P.F.s y k  X=Xp.$.' [ ' ) $.a.9X9X8X9Xa.$.~ W ~ Q / ~ | #.z i s F.L.R.!.~.~.~.~.~.~.~.~..XxXjXOXzX",
"VXBXNXBXVXjX/./.(.W.Y.~.!.!.I.F.s e l *Xa.q.[ [ [ ) q.8XMXvXGXJXJXGXZXcX8X$.W Q Q W ! ] &.l e a K.I.R.~.W.~.~.~.~.~.~.Y.^.^.W.OX",
"OXjXzXxXdX(.Y.Y.W.~.~.!.R.I.F.a q M 9Xa.$.$.[ [ ) p.MXGX9Xw.vXHXGXKXi.i.DXZXa.W Q W E ( _ %.x e a K.I.R.~.~.~.W.~.~.~.~.Y.~.~.~.",
"Y.~./.(.Y.~.~.~.~.~.!.!.I.K.a r 4.8Xa.q.} [ [ ' p.DXHXLXw.q.w.8XSXp.w.{ 9XFXAXi.E W E E ! | 0.#.r p G.I.!.!.!.!.~.~.~.~.~.~.~.~.",
"~.~.Y.W.~.~.~.~.~.~.!.I.F.s q M 2Xa.q.} [ ' ' [ cXJXHX=X} %.q.0.p.{ { { 0.LXFXMX_ E E E T ( | 0.=.k a G.I.!.!.!.~.~.~.~.~.~.~.~.",
"~.~.~.~.~.~.~.~.~.!.P.L.s e b 2Xa.q.$.[ ' [ ) i.SXHXvXq.{ *Xa.{ { &.7X0.{ *XAXAXu.E E E E T (  .0.8.5.m G.S.S._.~.~.~.~.~.~.~.~.",
"~.~.~.~.~.~.~.~.!.!.I.H.i l 9Xa.$.$.) ' ) ' ~ =XFXJXi.{ { SXJX0.` vXGXi.{ 0.cXAX6XT E E T T T R ` s.d. X#X&X'.S.~.~.~.~.~.~.~.~.",
"~.~.~.~.~.~.~.!.!.P.H.a r *X=Xq.$.) ) ' ) _ / a.FX8X%.` u.GXGXvX8XFXFX6X{ ` u.AX*XT E T T T T Y R ` u.5.$XvXLX].Y.~.~.~.~.~.~.~.",
"~.~.~.~.~.~.!.!.P.F.a q 5.>Xq.$._ ) ) ) ) _ Q p.AXi.{ ` 6XGXFXFXGXDXDXLX0.%.` cX7.T T T T Y Y Y Y  .0.y.d.6XcXhXW.~.~.~.~.~.~.~.",
"~.~.~.~.~.~.!.!.L.H.i b 2Xp.$.[ ) ) ) ) ) / Q Q kX6X{ ` LXDXDXAXZXZXMXAXu. .u.gXH T T T T T Y Y Y  .` s.d.#X%XdXR.W.~.~.~.~.~.~.",
"~.~.~.~.~.!.!.L.K.a k *Xa.$.' ) ) ) ~ ~ / Q Q W %.MXkX$XCXZXVXCXCXCXmXmX$X$XzX-.T T T Y Y Y Y Y H H  .I u.5.$X`.I.!.W.~.~.~.~.~.",
"~.~.~.~.~.!.R.L.s q 5.=Xq.[ ) ) ~ ~ / / / Q W W E %.cXcX7X7X9X6X6X6X6X7X7XgX-.Y T Y Y Y Y H Y H H Y J  .0.8.M d F.!.!.~.~.~.~.~.",
"~.~.~.~.~.!.P.K.p l *Xp.[ ) ~ ~ ~ ~ / / W E W ( _ ] { } } } } } [ [ [ } } { ! ! E T Y H Y Y Y Y H H J J I u.l i H.L.!.!.~.~.~.~.",
"~.~.~.!.~.R.L.H.q 4.=X} ) ~ ~ ~ ~ Q Q W / ~ ~ ) ^ ! ! E E T T T T T T T T ( ( / Q Q / ( Y H H H H H H J I 0.9.r s L.R.!.~.~.~.~.",
"~.~.~.~.!.P.K.a k =Xq.) ~ ~ ~ Q Q / ~ ~ ! ( T H H G G G C C S S S S C S C C G G G H Y T T T H H H H H H J I t.l y F.I.!.~.~.~.~.",
"~.~.~.~.!.P.J.e M B.[ ^ ~ / Q ^ _ ) ( Y G S S S D S C S S S S S C S C C S S Z Z V C C C G H R R J G G G J I s.4.r H.L.R.!.~.~.~.",
"~.~.~.!.R.L.H.r 9.w.~ ~ Q Q ] ] ( G S S F S S S V V V V Z D D D A A A Z B V B V V V V V V V C G J J G G G J I 9.k a F.!.!.~.~.~.",
"~.~.~.!.R.L.p z a.[ ~ Q Q ' ! G S F S S C C B 1 1 L P +.+.X.X.X.o.X.X.+.+.L L 1 1 < B V V V V D C G J J C J I u.l u F.P.!.~.~.~.",
"~.~.~.!.R.F.u b p.~ Q Q ] R G F S Z V B , + $ .   2 O.*.O.O.O.O.O.O.*.O.O.O.5 . O $ + , 1 B B V V C S F S S I <.M y J.I.!.~.~.~.",
"~.~.~.!.P.K.y 4.q.Q W ) R C D Z B 1 3 $   O O   . O 2 :.:.:.:.:.>.:.:.:.:.0   .   O O     2 1 B B V V D F Z F t.4.r H.L.R.~.~.~.",
"~.~.~.R.L.H.y #.$.W W ( G D C B 3 P % O O X @ @ .   $ O.r.1.3.3.3.3.3.3.:.# O O $ # #   O # 0 3 < B B V K D D @.9.k H.L.R.W.~.~.",
"~.~.~.R.P.H.y -.) W W H S V B 3 X.X.$   6 :.>.3.;.% O 0 g.f.f.g.f.f.r.f.o.  . 6 O.:.:...$ . ....3 1 < B F K S @.9.k H.L.R.~.~.~.",
"~.~.~.!.L.H.i #.) E E G V < 3 o.*.o.  =.g.g.k.j.n.j.5 # j.c.c.g.g.g.g.g.6 . X.r.3.f.:.3.O.@ +.O...3 < B A F D P ,.k s L.!.!.~.~.",
"~.~.~.R.I.H.y #.Q E W H B , ..:.r.>...n.c.c.n.n.n.m.m.*.g.m.b.b.v.v.j.j.9 O.f.1.f.f.3.:.3.o.O.*.O.o., < A K F I -.k H.L.R.!.~.~.",
"~.~.~.!.P.H.y #.Q E E G , , r.g.j.c.m.m.m.n.h.d.d.l.m.Z.N.N.N.m.m.n.n.g.1.f.:.5.5.,.f.3.1.1.:.:.:.>.2 + < F K P #.r H.L.!.~.~.~.",
"~.~.~.!.P.J.y x ! E Y < 3 7 b.Z.Z.V.C.C.m.$X%XlX%X].5.A.,XC.V.V.m.m.m.c.f.n m &X%X#X5.r.r.r.3.>.<.y.5 $ , D K I b i H.P.R.~.~.~.",
"~.~.~.R.I.K.u z ` T G A P P C.,X,X,X1XC.z.lXSXhX).Q.Q.`.,X,X,XC.V.N.m.n.n D.Q.)..X%X&X6.e.r.2.<.2.x.6 + 5 1 K I x i H.L.R.~.~.~.",
"~.~.W.!.I.H.k * U ( G K P X.0X0X1X0XqXC.7XDXMX}.)._.).XX;X0X0X,XC.V.m.g.a _._.{.).&XgX#Xf.f.f.3.2.z.6 + v 3 F 7 8 k s L.P.!.~.~.",
"~.~.!.P.F.a r l y.m.` P I X.0XwXqXqXwX>XMXJXjX{._.m N ).%X0XeX0X,XC.N.6.g c m c oX.XcX&Xh.g.f.1.2.z.6 $ v 3 P ,.x r p G.P.!.!.~.",
"~.!.U.I.J.y M aXsXpXwX@.P @.eXrXwXrXrX2XDXHXOX{.t gX$Xw OXwXaXwX1XC.Z.5.> N cX- oXXXlX&Xd.g.g.f.e.z.6 + v 9 *.d.x.4.e H.L.!.!.~.",
"~.!.R.L.s k *XrXeXrXuXr.P @.wXrXrXrXrX2XJXHX+X).: : : : OXuXyXuX0XC.m.4.w : : @ ).XXgXhXd.c.g.g.y.x.5 # n *.<.2.e.x.l u F.P.!.~.",
"~.!.R.F.u l 4XN.B.V.wX>.K @.wXrXrXuXrXtXJXHX+X{.w T.T.w fXpXsXpXiXrX3X Xw g T.> ).XXcXhXl.n.j.k.h.l.2 2 n ,.1.:.:.k.4.y K.P.!.~.",
"~.!.P.F.y M <Xm.Z.V.<X>.P @.0XrXrXrXwXeXJXHX+XoXc T.(.-XbXsXsXsXpXpXpXtX-X'.|.w oX@XcX%X*Xn.j.k.k.h.3 , n 2.:.:.-.t.4.y J.P.!.!.",
"~.!.P.K.y M ,XC.0X0X1X@.A P eXuXyXyXyXtXDXGXzXoX).`.nXbXbXbXnXsXbXpXiXtXyXtX X_.oX+XcX%XM.b.n.j.k.h.2 , n ,.:.:.:.1.4.k H.L.!.!.",
"~.!.P.F.i b <X1XwX0XB.@.3 7 iXuXaXsXsXyXvXFXFX@XfXbXbXnXnXnXnXnXbXpXiXtXtX8X4XfXXXlX%X$XV.N.Z.b.l.=X6 + 6 *.,.<.:.r.4.i H.P.!.~.",
"~.!.R.F.u l >XqXuXV.v.@.L 6.bXN n aXyXuXeXvXFXMXpXbXbXnXnXnXnXsXpXiXyXtXtX4X4X2XkXgX%X>X,X<X<X=.9 2X6.+ 6 =.O.2.,.y.=.y G.P.W.W.",
"~.!.R.F.p M ;XrXrXC.4X@.P rX-X4 ; n -XiXyXuXyXsXsXsXbXbXnXnXbXsXiXyXrXrX3X4X2X>X2X2X<X<X3XA.n - = 8.4X3 2 *.O.<.<.y.l u G.R.~.~.",
"~.!.!.L.J.5.*XyXyX1XwX@.X.sX5.; j ; 4 ;.*XuXiXiXpXpXsXsXsXsXsXiXyXrXqX3X4X<X:XM.;X,X,Xl.;.4 - ; & v 2X;.2 *.*.,.7.<.k a L.R.!.~.",
"~.~.!.L.E. X9.uXsXwXuX-X;XyXh 4 v v 4 ; ; v n -XyXiXpXpXpXiXiXyXrXrXqX3X<X:X>Xz.l.n 4 - = : ; - & 4 ;X*Xo.*.:.6.y.4.e H.L.R.~.~.",
"~.~.!.I.E.#X5.;XsXsXsXsXsXeX4 4 v v v v h 4 = d.uXuXyXyXuXuXuXrXrX3X1X<X:XC.M.M.7.@ & : ; ; - = & - l.2X;.*.<.2.s.l u G.P.!.~.~.",
"~.~.!.R.K.&X X9.uXsXsXsXuXwXv ; h h h v v v : d.rXeXwXwXqXqXqX0X3X<X:XC.N.b.k.c.;.  = = = = = = & - l.2X7.;.6.h.4.q s L.R.~.~.~.",
"~.~.~.!.I.[.%X5.A.uXiXyXuXuXd.= : 4 4 v v v h h ;X3X3X3X3X3X1X,X:X:XZ.N.b.c.k.k.2 O & & & & & & o ..k.5Xl.7.7.y.z i H.I.!.~.~.~.",
"~.~.~.~.!.I.`.#X5.;XrXeXuXrXuX;.= & = 4 h j j 4 ;.,X<X,X<X,X,XC.V.N.b.v.j.e.j.n O X o & & o X X 6 7.h.;Xh.2.u.x e H.L.R.!.~.~.~.",
"~.~.~.!.!.I.F.`.`.6.>X1XwXwXqXqXh.9 5 ; 4 4 v v ; ;.Z.V.V.N.N.m.b.n.j.g.k.k.o.  . o o o @ % 5 9 <.7.h.=Xd.r.7.4.m G.R.R.W.~.~.~.",
"~.~.~.~.!.!.S.G.d l x =.;XrX0X0X0XC.j.5 ; ; ; 4 4 : 9 y.M.N.b.n.c.j.j.k.f.6 O   X X o o & o.:.3.2.e.l.=X7.6.$X7XkX].S.W.!.!.~.~.",
"~.~.~.W.!.!.R.R.L.s y * 4.wX0XeX3X<X,Xe.= = = ; = ; ; ; 5 =.,.2.h.;.o.5 X O     . X X   9 >.<.3.2.f.z.l.;.$X7XvXKXSX'.Y.~.~.~.~.",
"~.~.~.~.~.~.~.!.I.F.s i l 4X0X3X0X0X3X3X2.4 @ @ % - ; ; & o @ @ X X O O O O X # . X @ 0 3.1.f.1.1.h.c.d.$X7XvXKXKXHXlXR.~.~.~.~.",
"~.~.~.~.~.~.~.!.R.R.F.a t 8.qX1X3X3X0X3X0XM.3.:.>.*.- & & & @ X X X X X     9 :.o.o.>.1.r.1.f.1.h.k.*Xd.%XkXSXDXJXHXDX/.!.~.~.~.",
"~.~.~.~.~.~.~.~.~.R.R.H.u z *X1X1X1X1X1X,X,XC.m.1.j.<.5 # & # 6 9 % @ @ % o.3.O.3.f.f.f.1.r.f.f.h.z.d.*X7XcXLXAXDXDXZX'.W.~.~.~.",
"~.~.~.~.~.~.~.~.!.~.R.R.s e b ;X,X,X1X1X1X,XC.V.N.n.v.k.:.*.>.>.1.3.*.o.*.:.O.:.1.1.1.f.e.f.h.h.z.d.$X7XcXmXMXZXZXZXBX/.!.~.~.~.",
"~.~.~.~.~.~.~.~.!.!.~.R.F.s e b A.,XC.,X,X,X,X,X:XC.:XN.m.k.r.r.3.3.3.f.3.1.f.f.f.1.f.f.e.e.h.z.d.$X7XcXMXzXBXCXBXCXfX!.~.~.~.~.",
"~.~.~.~.~.!.~.~.~.~.~.!.R.F.s e l u.:XV.:X,X,X,X<X:X:XN.m.m.b.c.j.j.f.f.f.g.f.g.f.f.f.f.e.h.y.9. X%XcXMXBXzXBXzXVXNX/.W.^.~.~.~.",
"~.~.~.~.~.~.~.~.~.~.~.~.R.R.F.s i r 4.M.C.V.C.,X:X<X<X<X:XZ.m.b.c.c.c.c.c.j.g.g.f.f.e.f.h.6.5. X%XgXcXMXCXBXCXCXxX'.U.~.W.~.~.~.",
"W.~.~.~.W.W.~.~.~.~.~.~.W.!.R.F.H.p e l 9.;XC.C.:X<X<X<X1X<X:X:XZ.N.m.n.n.j.j.f.e.h.y.7.5.5.$XhXgXgXmXjXOXjXfXOX/.R.W.!.~.~.W.W.",
"/.U.Y.U.^.(.U.W.~.~.~.W.~.!.!.R.L.K.s i q x 8.=X:XC.,X,X,X,X:X:XV.N.m.n.j.g.f.f.y.,.4.5.#X&XhXgXlXmXxX/.S.!.W.W.W.!.W.~.W.W./.'.",
"JXfX[.hXSXDXfX^.W.~.~.~.~.W.~.!.!.L.L.K.a i k b 8.N.V.V.:XN.:XN.m.b.v.c.f.f.f.,.x k i `.hXgXlXmXzXfX/.Y.~.~.~.~.~.~.~.W.~.OXFXGX",
"HXHXJXHXHXHXHXcX^.W.~.W.~.~.~.!.!.!.P.L.F.H.p y k x 9.c.b.m.b.b.v.j.j.e.f.;.n r r a H.G./.]..XOX'.!.Y.~.W.~.~.~.~.W.~.Y.dXAXAXGX",
"GXHXHXJXHXHXHXHXdXR.Y.W.~.~.~.~.~.!.!.R.P.L.F.H.a y r l x =.=.4.;.=.n b l r y p H.G.L.P.S.S.Y.Y.~.~.~.~.~.~.~.~.~.~.!.'.NXNXZXDX",
"DXJXHXJXHXHXHXHXHXmX'.W.~.~.~.~.~.~.~.!.!.!.P.L.F.H.a u y y r r r e y y u s H.F.L.P.P.!.!.!.~.~.~.~.~.~.~.~.~.~.~.~.Y.'.BXNXBXZX"
};
