/* XPM */
static char *result[] = {
/* columns rows colors chars-per-pixel */
"64 64 185 2 ",
"   c #1C160E",
".  c #1C1710",
"X  c #1C1814",
"o  c #1D1A1B",
"O  c #161415",
"+  c #261D0F",
"@  c #241C15",
"#  c #2B1D14",
"$  c #231D1B",
"%  c #291F1C",
"&  c #201611",
"*  c #321E13",
"=  c #3F220F",
"-  c #2E221E",
";  c #3C2214",
":  c #32231D",
">  c #39251C",
",  c #141824",
"<  c #1D1C23",
"1  c #1D1F2B",
"2  c #141C2C",
"3  c #131E36",
"4  c #251F22",
"5  c #1F202C",
"6  c #14213D",
"7  c #1D2238",
"8  c #242026",
"9  c #2F2322",
"0  c #252229",
"q  c #302422",
"w  c #3B2726",
"e  c #3C2728",
"r  c #3B292B",
"t  c #34282B",
"y  c #212438",
"u  c #3B2A33",
"i  c #3B2C3B",
"p  c #412316",
"a  c #482616",
"s  c #41241A",
"d  c #462819",
"f  c #4A2D1D",
"g  c #4A2817",
"h  c #522917",
"j  c #5E2E16",
"k  c #522A19",
"l  c #5A2E19",
"z  c #632F14",
"x  c #6A3415",
"c  c #66341C",
"v  c #6A361E",
"b  c #6A341A",
"n  c #713A1F",
"m  c #783A18",
"M  c #452C24",
"N  c #492E22",
"B  c #462C28",
"V  c #492F28",
"C  c #4A3024",
"Z  c #4A322B",
"A  c #473024",
"S  c #5D3C26",
"D  c #5D3C2A",
"F  c #5C3F33",
"G  c #563B33",
"H  c #48363D",
"J  c #613E26",
"K  c #6F3920",
"L  c #603E2B",
"P  c #733B21",
"I  c #793E23",
"U  c #613F30",
"Y  c #59413A",
"T  c #674229",
"R  c #7B452C",
"E  c #604033",
"W  c #60433C",
"Q  c #7A4733",
"!  c #7A493B",
"~  c #142242",
"^  c #172549",
"/  c #192A5B",
"(  c #2F3145",
")  c #37314C",
"_  c #363151",
"`  c #393351",
"'  c #3D3856",
"]  c #312A49",
"[  c #162D67",
"{  c #122F72",
"}  c #183074",
"|  c #323869",
" . c #2C3F7C",
".. c #493B4E",
"X. c #5B4446",
"o. c #5E4853",
"O. c #59465E",
"+. c #604645",
"@. c #61474A",
"#. c #794B44",
"$. c #624B56",
"%. c #72634C",
"&. c #5F4C61",
"*. c #5E5678",
"=. c #63537A",
"-. c #954C1E",
";. c #89451F",
":. c #864526",
">. c #884627",
",. c #86472A",
"<. c #894728",
"1. c #8E4A2A",
"2. c #924C2B",
"3. c #97502F",
"4. c #9D532E",
"5. c #8C513D",
"6. c #9E5430",
"7. c #A0532F",
"8. c #A15530",
"9. c #AB5B33",
"0. c #B75E35",
"q. c #B85F35",
"w. c #AA6038",
"e. c #BA6136",
"r. c #BF6B3D",
"t. c #CA652F",
"y. c #CC6730",
"u. c #CE6831",
"i. c #C46D3F",
"p. c #D26931",
"a. c #D76F3D",
"s. c #DA6F3E",
"d. c #D7713D",
"f. c #D9713E",
"g. c #E4753E",
"h. c #967C5A",
"j. c #AA6447",
"k. c #915E6B",
"l. c #97646F",
"z. c #926371",
"x. c #966C77",
"c. c #DC7340",
"v. c #D97D4B",
"b. c #E47540",
"n. c #EA7843",
"m. c #BD9C6E",
"M. c #E3814A",
"N. c #E88349",
"B. c #F38A4E",
"V. c #EE8751",
"C. c #EF8B55",
"Z. c #F38D53",
"A. c #F98F50",
"S. c #FC9255",
"D. c #F89559",
"F. c #F89E62",
"G. c #F2AC74",
"H. c #293E87",
"J. c #1C3EA7",
"K. c #163FAD",
"L. c #2D418C",
"P. c #2C4087",
"I. c #314187",
"U. c #29439B",
"Y. c #1741AE",
"T. c #1C41AB",
"R. c #1F40A7",
"E. c #1A41B0",
"W. c #2444A7",
"Q. c #2245AD",
"!. c #2747A8",
"~. c #3A4CA0",
"^. c #2246B0",
"/. c #3951A6",
"(. c #4E5381",
"). c #4B539A",
"_. c #464E86",
"`. c #5369AD",
"'. c #4A62AA",
"]. c #826D85",
"[. c #6982C5",
"{. c #DCAA81",
"}. c #E1AF86",
"|. c #E4B183",
" X c #A49CA3",
/* pixels */
"W.W.W.T.J.J.K.^.J.J.J.J.K.T.T.T.E.E.E.R.E.R.^.E.E.R.E.R.K.E.W.W.Q.W.W.T.T.T.T.T.^.^.E.E.E.^.^.E.^.E.E.E.E.E.E.E.E.^.E.E.E.Q.!.Q.",
"W.Q.W.).).).).).).).).).).).).).).'.).).).).).'.).).).).).).!.Q.W.Q.~.).).).).).)./.).).).).)./.).).).).).).).).).).).).).~.R.W.",
"W.W.&.v.C.C.Z.C.C.C.C.C.C.C.Z.C.n.C.n.n.n.n.D.v.D.n.n.S.V.F. XU.W.H.j.A.C.C.Z.C.n.n.n.n.n.n.n.n.D.n.n.n.n.S.n.n.n.C.C.C.V.}.`.R.",
"Q.L.l 2.4.4.4.6.8.4.7.7.7.4.7.7.8.8.j.7.9.8.8.8.8.8.8.8.3.0.n...] N I 9.7.7.7.7.7.5.j.7.9.8.j.j.9.8.8.j.7.7.j.7.9.8.8.8.3.s.x.K.",
"Q.H.k :.2.1.1.2.2.2.1.1.1.1.2.1.2.2.2.1.1.1.2.2.5.2.2.2.2.7.c.B & p P 2.1.1.1.2.2.2.2.2.2.2.2.2.5.2.2.2.2.2.2.2.2.2.1.2.1.t.z.K.",
"Q.L.k <.2.2.2.2.2.2.2.2.2.2.2.2.2.2.2.2.2.2.2.2.2.2.2.2.1.7.c.k & p P 3.2.2.2.2.2.2.2.7.2.2.2.2.2.2.7.2.2.2.7.2.2.2.3.3.1.y.l.K.",
"^.L.k >.2.2.2.3.2.2.2.2.2.2.2.2.2.2.2.2.2.2.1.2.2.2.2.2.1.7.s.B & s P 2.2.2.2.2.2.2.7.2.7.2.2.2.2.2.3.2.2.2.3.2.2.2.2.3.1.p.l.K.",
"Q.L.k <.2.2.2.2.2.2.2.2.2.2.2.2.2.2.2.2.2.2.5.2.2.2.2.2.2.7.c.B & s P 3.2.2.3.2.2.2.2.2.2.2.2.2.3.2.2.2.2.2.2.2.3.2.2.2.1.p.z.K.",
"^.L.k <.2.3.2.3.2.2.2.2.2.2.2.2.2.2.2.2.2.2.2.2.2.2.2.2.2.8.f.f $ p P 3.2.2.2.2.2.2.2.3.2.2.2.7.7.2.2.2.2.2.2.2.2.2.2.3.1.t.l.E.",
"Q.H.k ,.2.2.2.2.2.2.2.2.2.2.2.2.1.2.2.2.2.2.2.2.2.2.2.2.2.7.f.f & s P 2.2.2.2.2.2.2.2.2.2.7.2.2.2.2.2.2.7.2.2.2.2.2.2.3.1.t.l.E.",
"^.H.k ,.2.3.2.2.2.2.2.2.2.2.2.5.2.2.2.2.2.2.2.2.2.2.2.2.2.4.c.f & p P 3.2.2.2.2.2.2.2.2.2.2.2.2.2.2.2.2.2.2.2.7.3.2.2.2.1.p.z.K.",
"^.L.k ,.2.2.2.2.3.2.3.2.2.2.2.2.2.2.2.2.2.2.2.2.2.2.2.2.1.7.f.f & p P 2.2.2.2.2.2.2.2.2.2.3.2.3.2.2.7.2.2.2.2.2.2.3.2.3.1.p.z.K.",
"Q.L.k <.2.2.2.2.2.2.2.5.2.2.2.2.2.2.2.2.2.2.2.2.2.2.2.2.2.7.s.f & p P 3.1.2.2.2.2.2.2.2.2.2.3.2.2.2.2.2.2.2.7.2.2.3.2.2.<.y.].J.",
"Q.L.k <.3.2.2.2.2.2.2.2.2.2.3.2.3.2.2.3.2.2.3.2.2.2.2.2.1.7.f.N @ p K 3.2.2.2.2.2.2.2.2.2.2.2.2.2.2.2.7.2.2.2.2.3.2.2.3.1.y.k.E.",
"^.L.k <.2.2.2.3.2.2.2.2.2.2.2.2.5.2.2.2.2.2.2.2.2.3.3.2.1.7.f.C $ p K 3.2.2.2.2.2.2.2.2.2.2.2.2.2.2.2.2.7.2.2.2.2.2.2.3.1.y.l.E.",
"Q.H.k <.2.2.2.2.2.3.2.3.2.3.2.2.2.2.2.2.2.2.2.2.2.2.2.2.2.7.f.Z 4 s K 2.2.2.2.2.2.3.2.2.2.2.2.2.2.2.2.2.2.2.2.2.2.2.2.2.1.y.z.E.",
"Q.H.k <.2.2.2.2.2.2.2.1.3.1.1.3.1.3.2.2.2.2.2.2.3.1.2.2.1.8.f.H 7 s I 2.2.2.2.2.2.2.2.1.2.1.2.2.2.2.2.2.2.2.2.2.2.2.2.2.2.t.z.E.",
"^.L.k <.2.1.2.1.2.2.1.3.1.3.3.1.2.1.2.1.2.2.2.2.2.2.2.2.1.4.f.../ s P 2.2.1.2.2.3.2.1.1.2.2.2.2.2.2.2.2.2.2.2.2.2.2.3.2.2.t.z.K.",
"^.H.k 1.2.2.2.2.2.2.2.2.3.1.3.3.2.3.2.3.3.2.3.2.2.2.3.2.2.8.f...[ N P 3.2.2.2.2.1.3.3.3.3.2.2.2.2.2.2.2.3.2.3.3.2.2.2.2.3.p.l.K.",
"Q.U.V b P v v v v K K v v v v v v v v v v v v J v v v n K P 2.t y * k K K K v n v v v v v v c c K K K P v v v K K K K v b -.(.E.",
"W.^.H.* ; ; ; ; ; ; ; ; ; ; ; ; ; ; ; ; ; ; ; ; ; ; ; ; = = - X % # * p ; ; ; ; ; ; ; ; ; ; ; = s s p ; ; ; p * ; ; p * p ..R.R.",
"W.!.!.,   X X X o o o 1 1 < o @ @ @ - o 7 ^ ~ 1 o X . .         & . . . . . X X o < < o   - X - * % 4 0 < o & & & . & & & H.^.W.",
"W.T.W.G J L L U E E +.o.o.@.Y o @ @ @ Z $.&.&.@.Y E S T T S T T J J J J T J L E E W Y E E > X - 4 e F $.@.+.U U L L U L P _.E.W.",
"W.W.O.N.A.Z.A.Z.Z.Z.Z.Z.Z.B.G.%.  - ; i.S.B.Z.A.Z.Z.Z.A.Z.C.Z.Z.Z.A.Z.Z.B.Z.Z.A.Z.Z.A.Z.F.m.- $ % I n.n.V.Z.Z.Z.Z.Z.Z.C.S.{.'.R.",
"^.H.c 2.4.4.4.4.4.4.4.4.7.2.i.v.- @ g :.8.4.4.4.4.4.4.7.4.4.4.6.7.6.4.4.4.4.4.4.6.6.6.6.6.B.T o > c 4.6.4.4.6.6.7.7.6.8.2.d.x.K.",
"Q.H.k <.2.2.1.1.1.1.1.1.1.:.q.f.- @ a n 2.1.1.1.1.1.-.1.1.1.-.1.1.2.1.1.2.2.2.2.1.1.1.1.2.f.R 5 w j 1.2.2.2.1.1.2.1.1.2.1.y.z.Y.",
"^.H.k <.2.2.2.2.2.1.1.1.2.<.q.d.- $ a n 2.2.2.1.1.2.1.1.1.2.2.2.2.1.2.2.1.2.2.2.2.2.2.2.3.g.Q 6 w j 1.2.2.2.2.5.2.2.2.2.1.y.z.Y.",
"^.H.k <.2.2.2.2.2.1.1.2.2.,.q.c.9 - g n 2.2.1.2.2.1.1.1.2.1.2.2.2.2.1.2.1.1.3.1.2.2.1.1.2.g.Q 6 r j 1.2.2.2.2.2.2.2.2.2.1.t.z.Y.",
"^.H.k >.2.2.2.2.2.1.1.3.1.>.e.d.- 8 a I 2.1.1.2.2.1.2.-.1.1.2.1.1.2.1.2.1.2.1.2.2.2.2.1.3.g.! 6 r j 2.2.2.2.2.2.2.2.2.2.,.y.z.Y.",
"^.L.k <.2.2.2.2.2.2.2.1.3.>.e.d.q $ a P 3.1.1.1.1.2.2.1.1.2.1.2.2.1.2.1.2.2.2.2.1.2.1.2.2.g.! 6 w j 2.2.2.2.2.2.2.2.2.3.1.y.z.Y.",
"^.L.k <.2.2.2.2.2.1.2.1.1.>.e.d.- 4 a I 2.2.1.1.2.2.2.2.2.2.-.1.2.1.2.-.2.1.1.2.2.1.2.1.2.g.! 6 w j 1.2.2.2.3.2.2.2.2.2.,.y.z.Y.",
"Q.L.k 1.2.2.2.2.2.2.1.1.2.>.e.d.q 4 a I 2.2.3.1.2.2.2.2.2.1.1.2.1.2.1.2.1.2.1.2.2.1.2.1.3.g.! ^ w j 1.2.2.2.2.2.2.2.2.3.1.y.z.Y.",
"Q.L.k ,.2.2.2.2.2.2.2.1.2.<.e.d.: 8 d I 2.2.2.2.2.2.2.2.2.2.1.2.2.2.2.2.1.-.1.1.1.1.2.1.2.g.! ^ t j 1.2.2.1.2.2.-.1.2.2.1.y.z.Y.",
"Q.P.k :.2.2.2.2.2.2.1.2.2.,.e.d.9 8 d I 3.2.2.2.1.2.2.-.2.2.2.1.2.1.2.2.2.1.1.2.2.2.2.1.2.g.! / i j 1.2.2.2.2.2.2.1.2.2.1.u.z.Y.",
"Q.L.l :.2.2.2.2.2.2.2.1.1.,.e.d.9 0 d m 2.2.2.2.2.2.2.2.2.2.1.1.2.2.2.-.2.2.2.2.2.2.1.1.2.g.! [ u j 1.2.2.2.2.1.1.2.2.2.,.y.z.Y.",
"Q.L.f ;.2.2.2.2.2.2.2.2.2.<.e.d.9 0 f T -.2.1.2.2.2.2.2.2.2.3.1.2.2.2.2.2.2.1.2.2.2.2.1.2.g.#.{ i j 1.2.1.2.1.2.2.1.1.2.,.y.z.Y.",
"^.L.k 1.2.2.2.2.1.2.2.1.2.:.e.d.9 8 d I 3.2.2.2.2.2.2.2.2.2.2.1.2.2.2.2.2.1.2.2.2.2.2.1.3.g.#.{ i j 1.1.2.1.1.2.1.1.1.2.1.u.z.Y.",
"Q.L.k :.2.2.2.2.2.2.2.2.3.<.e.d.- 8 g n 2.2.2.1.2.1.2.2.2.2.1.3.2.2.2.2.2.2.2.2.2.2.2.-.2.f.! [ i j 1.2.2.2.2.1.1.-.2.2.,.u.z.Y.",
"Q.L.k :.2.2.2.2.2.1.2.1.2.<.e.f.- $ g n 2.2.2.2.2.1.1.2.2.2.2.1.2.2.2.2.2.2.1.2.2.2.2.2.2.g.! ^ u j 2.2.1.2.2.-.1.2.1.2.,.u.z.Y.",
"Q.P.h 1.2.2.2.2.2.2.3.2.3.1.e.f.- - g I 3.2.2.2.2.3.2.2.2.2.2.1.2.2.2.2.2.2.2.2.2.2.2.2.2.N.Q 3 r j 2.2.2.2.2.2.3.2.3.2.1.u.z.Y.",
"T.U.A j v v v v x J x c v c R :.- @ = k c v v c K v v v J c v v J J x x c v v c v c v c v 2.C 5 : g c J v v v v v c c c c ;.*.Y.",
"!.Q.P.; ; > ; ; ; * ; ; ; ; ; X o - - ; ; ; ; ; ; ; ; ; p * ; ; = = ; ; ; ; ; ; ; ; ; ; ; + @ 0 - + = ; ; ; ; ; ; ; ; * = ' T.!.",
"T.!.T.,   . X o O O X         O X O   .     X X X X X X . X @ # + - @ o 5 7 5 5 o X X X   O X , o .                 O   X  .^.!.",
"!.T.!.E S S E E E T E T T E T S E T T C E E T E D D L S J S $ @ -   A Y Y X.X.Y Y E E E E T E T T E T C T T S S T T S S T *.Y.!.",
"!.T.O.N.B.B.Z.Z.A.Z.Z.A.Z.Z.Z.Z.Z.Z.Z.Z.N.Z.Z.Z.B.Z.Z.Z.Z.F.h.@ X + w.S.Z.A.Z.Z.Z.Z.D.Z.Z.D.D.Z.V.Z.Z.Z.D.Z.Z.D.Z.C.C.D.Z.G.`.Y.",
"T.P.l 2.4.4.4.4.3.6.6.3.4.4.6.6.4.4.4.6.4.4.4.4.4.7.7.4.3.9.M.M X d I 6.4.4.4.4.3.3.3.6.4.3.4.3.3.4.3.3.6.6.3.3.3.4.4.6.3.d.x.Y.",
"^.P.f ;.1.1.1.1.1.1.1.1.1.1.1.1.1.1.1.1.1.1.1.1.1.1.1.1.1.3.a.V - ; v 1.1.1.1.1.1.1.-.1.1.1.1.1.1.1.-.1.-.1.1.1.1.2.-.1.,.e.z.Y.",
"^.L.k :.2.2.1.1.2.2.2.2.1.2.1.1.1.-.2.2.1.2.1.1.1.2.1.1.1.4.d.V 5 = n 3.1.2.2.2.2.2.1.2.1.1.2.2.2.2.2.1.1.2.2.2.1.2.2.2.1.t.z.Y.",
"T.L.k <.2.1.2.2.2.2.2.2.1.1.2.2.2.2.2.2.-.1.2.2.1.1.1.1.1.4.a.C 5 d n 2.1.3.-.3.2.1.2.2.1.2.1.1.1.2.2.1.1.2.2.2.1.2.2.2.1.u.h.Y.",
"^.L.k <.2.1.2.2.2.2.2.2.2.2.2.2.2.2.2.2.1.2.2.1.2.2.2.1.1.4.d.V 5 ; n 2.1.1.1.1.2.2.2.2.2.2.3.1.2.1.2.2.2.1.2.1.2.2.2.2.1.r.z.Y.",
"T.P.k <.2.2.2.1.-.2.1.2.2.2.1.2.2.2.2.2.3.2.2.2.2.1.2.1.1.4.d.A 5 ; T -.1.1.1.3.2.2.2.1.2.2.1.3.2.2.2.2.2.2.2.2.2.2.2.2.,.t.z.Y.",
"^.P.k :.2.1.2.-.2.2.2.2.2.1.2.2.2.2.2.2.1.2.2.2.2.2.2.1.>.4.d.A 5 d T 3.1.3.2.2.2.2.2.2.2.2.3.1.2.2.2.2.2.2.2.2.2.2.2.2.,.t.z.Y.",
"^.L.h <.3.1.2.2.1.2.2.2.1.1.2.2.2.2.2.2.2.2.2.1.2.2.1.2.1.4.d.A 5 d n 3.2.2.2.2.-.3.1.1.2.2.2.2.2.2.2.1.1.1.2.2.2.1.2.2.1.y.z.Y.",
"^.L.h >.2.1.2.1.2.1.2.1.2.2.-.1.2.2.2.1.2.1.2.1.2.2.1.2.1.4.d.A 5 ; n 2.1.2.1.2.1.1.1.3.1.2.2.2.2.2.2.2.1.3.1.3.2.2.2.2.1.y.z.Y.",
"Q.L.l :.1.1.1.1.-.1.1.2.2.1.1.1.2.2.2.2.2.2.2.-.1.2.1.1.1.4.d.f 8 ; v 3.1.2.2.1.2.2.1.2.2.2.1.2.2.2.2.2.1.2.2.1.2.2.2.2.,.t.z.Y.",
"T.L.f :.2.1.2.1.1.1.2.2.1.2.2.2.1.2.1.2.1.2.2.1.2.2.2.1.1.4.d.A o ; v 3.2.2.1.2.1.2.2.2.1.1.2.2.2.2.1.2.2.2.2.2.2.2.2.2.,.y.z.Y.",
"T.L.h :.2.1.-.1.2.1.2.1.1.2.1.2.1.2.1.2.2.1.2.2.2.1.2.2.1.4.a.f $ ; K 2.2.1.2.2.2.2.2.2.2.2.2.2.2.2.2.2.2.2.2.2.2.2.2.2.,.u.x.Y.",
"^.L.h :.2.1.1.1.1.2.1.1.2.2.-.1.1.1.2.1.1.2.2.1.1.1.1.1.1.3.d.N $ s K 3.2.2.1.2.2.2.2.2.1.2.1.2.1.1.2.2.2.2.2.1.2.2.2.2.1.u.z.Y.",
"Q.L.k :.2.1.1.2.1.1.1.-.2.1.1.1.1.1.2.1.-.1.1.2.2.1.2.1.1.3.c.M o s P 2.2.2.2.1.2.1.2.2.2.2.2.2.2.1.2.2.2.2.2.2.2.2.2.2.1.t.z.Y.",
"Q.L.g :.2.1.1.1.2.1.1.1.1.1.1.1.1.1.1.2.1.1.1.1.2.1.1.2.1.4.c.C $ ; K 2.1.1.2.2.1.2.2.2.2.1.1.1.2.1.1.2.2.2.2.1.2.2.1.2.,.e.z.Y.",
"T.L.h 1.3.2.2.2.2.2.2.2.2.2.2.2.2.2.2.2.2.2.2.2.2.2.2.3.2.4.f.d   p K 3.2.2.2.2.2.2.2.2.2.2.2.2.2.2.3.2.2.2.2.3.2.2.2.3.2.u.k.Y.",
"Q.U.A z x x x x x x x x x x x x x x x x x x x x x x x x z m 5.| { ) h x x x x x x x x x x x x v x x x x x x x x x x x x z -.=.Y.",
"W.^.P.) ` ` _ ' _ _ ` ` ` ` _ _ _ _ _ _ ` ` ) _ _ ` ) ) _ ` L.^.Q.Q.' _ _ _ _ _ _ _ _ _ ` ` _ ( _ _ ` _ _ _ _ _ ` _ ` ` ( *.[.!.",
"W.!.Q.E.^.^.T.^.^.T.^.^.T.^.^.T.^.^.Q.^.^.^.^.^.^.^.Q.Q.^.^.Q.W.W.!.^.^.^.^.^.^.^.^.^.^.^.^.^.^.^.^.^.^.^.^.^.^.^.^.^.^.^.^.T./."
};
